;FLAVOR:Marlin
;TIME:3665
;Filament used: 5.40241m
;Layer height: 0.3
;MINX:29.302
;MINY:111.723
;MINZ:0.3
;MAXX:137.905
;MAXY:168.325
;MAXZ:6.3
;Generated with Cura_SteamEngine 5.0.0
M140 S50
M105
M190 S50
M104 S215
M105
M109 S215
M82 ;absolute extrusion mode
G28 ; Auto home
G1 Z15 F300 ;Move up slightly
M107 ;Off fans
G90 ;Switch to absolute positioning
M82 ;Extruder absolute mode
G92 E0 ;Set position of extruder to 0
G0 X10 Y20 F1500 ;Move to X10 Y20 at 1500mms
G1 Z0.8 ;Move Z to 0.8
G1 F300 X180 E40 ;Extrude a line of filament
G1 F1200 Z2 ;Raise Z
G92 E0 ;Set extruder position to zero
G28 ;Auto home
G92 E0
G92 E0
G1 F3600 E-1.8
;LAYER_COUNT:21
;LAYER:0
M107
G0 X31.589 Y111.868 Z0.3
G0 X29.302 Y115.57
;TYPE:SKIRT
G1 F3600 E0
G1 F900 X29.311 Y114.89 E0.0475
G1 X29.358 Y114.386 E0.08285
G1 X29.483 Y113.896 E0.11818
G1 X29.684 Y113.432 E0.15349
G1 X29.956 Y113.006 E0.1888
G1 X30.291 Y112.628 E0.22408
G1 X30.681 Y112.307 E0.25936
G1 X31.118 Y112.051 E0.29473
G1 X31.589 Y111.868 E0.33002
G1 X32.083 Y111.761 E0.36533
G1 X32.833 Y111.723 E0.41778
G1 X134.045 Y111.723 E7.48706
G1 X134.743 Y111.733 E7.53582
G1 X135.246 Y111.78 E7.57111
G1 X135.736 Y111.906 E7.60644
G1 X136.2 Y112.108 E7.64179
G1 X136.626 Y112.38 E7.67709
G1 X137.004 Y112.715 E7.71237
G1 X137.324 Y113.106 E7.74766
G1 X137.579 Y113.543 E7.783
G1 X137.762 Y114.014 E7.81829
G1 X137.869 Y114.508 E7.8536
G1 X137.904 Y115.165 E7.89955
G1 X137.905 Y164.433 E11.34074
G1 X137.895 Y165.16 E11.39152
G1 X137.848 Y165.663 E11.42681
G1 X137.722 Y166.153 E11.46215
G1 X137.521 Y166.617 E11.49746
G1 X137.249 Y167.043 E11.53277
G1 X136.914 Y167.422 E11.5681
G1 X136.523 Y167.742 E11.60339
G1 X136.087 Y167.997 E11.63867
G1 X135.616 Y168.181 E11.67398
G1 X135.121 Y168.287 E11.70934
G1 X134.465 Y168.324 E11.75523
G1 X33.169 Y168.325 E18.83038
G1 X32.471 Y168.316 E18.87914
G1 X31.967 Y168.269 E18.9145
G1 X31.477 Y168.144 E18.94982
G1 X31.013 Y167.943 E18.98514
G1 X30.587 Y167.672 E19.0204
G1 X30.208 Y167.337 E19.05573
G1 X29.887 Y166.946 E19.09106
G1 X29.632 Y166.51 E19.12634
G1 X29.448 Y166.039 E19.16166
G1 X29.341 Y165.545 E19.19697
G1 X29.304 Y164.84 E19.24628
G1 X29.302 Y115.57 E22.6876
G1 F3600 E20.8876
;MESH:WK Bottom.stl
G0 X31.838 Y115.571
G0 X32.913 Y115.57
G0 X33.399 Y119.102
G1 F3600 E22.6876
G0 X33.431 Y119.099
;TYPE:WALL-INNER
G1 F957.4 X33.497 Y118.27 E22.7422
G1 F902.3 X33.796 Y117.492 E22.80027
G1 F900 X34.287 Y116.818 E22.85852
G1 X34.936 Y116.294 E22.91678
G1 X35.698 Y115.957 E22.97497
G1 F954.9 X36.529 Y115.851 E23.03012
G1 F957.4 X37.358 Y115.917 E23.08472
G1 F902.3 X38.136 Y116.216 E23.14279
G1 F900 X38.809 Y116.708 E23.20102
G1 X39.332 Y117.356 E23.25918
G1 X39.67 Y118.118 E23.31741
G1 X39.799 Y118.945 E23.37587
G1 X39.71 Y119.779 E23.43445
G1 X39.411 Y120.556 E23.4926
G1 X38.919 Y121.229 E23.55083
G1 X38.272 Y121.752 E23.60894
G1 X37.51 Y122.09 E23.66716
G1 X36.683 Y122.219 E23.72562
G1 X35.849 Y122.131 E23.7842
G1 X35.072 Y121.831 E23.84237
G1 X34.398 Y121.34 E23.90062
G1 X33.874 Y120.693 E23.95877
G1 X33.537 Y119.93 E24.01703
G1 F954.9 X33.431 Y119.099 E24.07218
G0 F3600 X33.893 Y118.322
;TYPE:WALL-OUTER
G1 F900 X34.166 Y117.645 E24.12316
G1 X34.605 Y117.062 E24.17414
G1 X35.18 Y116.612 E24.22513
G1 F902.3 X35.851 Y116.327 E24.27593
G1 X36.578 Y116.225 E24.32707
G1 F900 X37.306 Y116.313 E24.37829
G1 X37.983 Y116.586 E24.42928
G1 X38.565 Y117.025 E24.4802
G1 X39.015 Y117.6 E24.53119
G1 X39.3 Y118.271 E24.58211
G1 X39.403 Y118.997 E24.63333
G1 X39.314 Y119.727 E24.6847
G1 X39.041 Y120.403 E24.73562
G1 X38.602 Y120.985 E24.78653
G1 X38.028 Y121.435 E24.83748
G1 X37.357 Y121.72 E24.8884
G1 X36.631 Y121.823 E24.93961
G1 X35.901 Y121.734 E24.99098
G1 X35.225 Y121.461 E25.0419
G1 X34.642 Y121.022 E25.09287
G1 X34.192 Y120.449 E25.14376
G1 F902.3 X33.907 Y119.777 E25.19462
G1 X33.805 Y119.05 E25.24577
G1 F900 X33.893 Y118.322 E25.29698
G0 F3600 X33.967 Y118.137
G0 X33.587 Y117.979
G0 X33.477 Y118.825
G0 X33.399 Y145.102
G0 X33.431 Y145.099
;TYPE:WALL-INNER
G1 F960 X33.498 Y144.27 E25.35144
G1 F904.5 X33.796 Y143.492 E25.40934
G1 F900 X34.287 Y142.818 E25.46759
G1 X34.936 Y142.295 E25.5258
G1 X35.698 Y141.957 E25.58403
G1 X36.526 Y141.828 E25.64256
G1 X37.358 Y141.916 E25.70099
G1 X38.136 Y142.216 E25.75924
G1 X38.809 Y142.708 E25.81746
G1 X38.887 Y142.779 E25.82483
G1 X39.332 Y143.356 E25.87573
G1 X39.67 Y144.118 E25.93395
G1 X39.799 Y144.945 E25.99241
G1 X39.71 Y145.779 E26.05099
G1 X39.411 Y146.556 E26.10914
G1 X38.919 Y147.229 E26.16737
G1 X38.272 Y147.752 E26.22548
G1 X37.51 Y148.09 E26.2837
G1 X36.683 Y148.219 E26.34216
G1 X35.849 Y148.131 E26.40074
G1 X35.072 Y147.831 E26.45892
G1 X34.398 Y147.34 E26.51716
G1 X33.875 Y146.693 E26.57527
G1 F902.3 X33.538 Y145.93 E26.63338
G1 F957.4 X33.431 Y145.099 E26.68839
G0 F3600 X33.893 Y144.322
;TYPE:WALL-OUTER
G1 F900 X34.166 Y143.645 E26.73938
G1 X34.605 Y143.062 E26.79035
G1 X35.18 Y142.612 E26.84135
G1 X35.851 Y142.327 E26.89227
G1 X36.578 Y142.225 E26.94354
G1 X37.306 Y142.313 E26.99476
G1 X37.983 Y142.586 E27.04575
G1 X38.565 Y143.025 E27.09667
G1 X38.591 Y143.049 E27.09914
G1 X39.026 Y143.615 E27.149
G1 X39.3 Y144.271 E27.19865
G1 X39.403 Y144.997 E27.24987
G1 X39.314 Y145.727 E27.30123
G1 X39.041 Y146.403 E27.35216
G1 X38.602 Y146.985 E27.40307
G1 X38.028 Y147.435 E27.45402
G1 X37.357 Y147.72 E27.50494
G1 X36.631 Y147.823 E27.55615
G1 X35.901 Y147.734 E27.60752
G1 X35.225 Y147.461 E27.65844
G1 X34.642 Y147.022 E27.70941
G1 X34.192 Y146.449 E27.7603
G1 F902.3 X33.907 Y145.777 E27.81116
G1 X33.805 Y145.05 E27.8623
G1 F900 X33.893 Y144.322 E27.91352
G0 F3600 X33.967 Y144.137
G0 X33.587 Y143.979
G0 X34.373 Y142.793
G0 X35.028 Y142.293
G0 X35.788 Y141.977
G0 X36.604 Y141.87
G0 X127.399 Y161.102
G0 X127.408 Y161.102
;TYPE:WALL-INNER
G1 F900 X127.496 Y160.27 E27.97196
G1 X127.796 Y159.492 E28.0302
G1 X127.875 Y159.356 E28.04118
G1 X128.306 Y158.796 E28.09054
G1 X128.936 Y158.295 E28.14676
G1 X129.698 Y157.957 E28.20499
G1 X130.526 Y157.829 E28.26351
G1 X131.358 Y157.916 E28.32194
G1 X132.136 Y158.216 E28.38018
G1 X132.809 Y158.708 E28.4384
G1 X133.333 Y159.356 E28.49661
G1 F902.3 X133.67 Y160.118 E28.55466
G1 F957.4 X133.776 Y160.949 E28.60966
G1 X133.71 Y161.779 E28.66433
G1 F902.3 X133.411 Y162.556 E28.72233
G1 F900 X132.919 Y163.229 E28.78056
G1 X132.273 Y163.753 E28.83866
G1 F902.3 X131.51 Y164.09 E28.89677
G1 F957.4 X130.679 Y164.196 E28.95178
G1 F960 X129.849 Y164.13 E29.0063
G1 F902.3 X129.072 Y163.831 E29.0643
G1 F900 X128.398 Y163.34 E29.12254
G1 X127.875 Y162.692 E29.18071
G1 X127.537 Y161.93 E29.23893
G1 X127.408 Y161.102 E29.29746
G0 F3600 X127.805 Y161.05
;TYPE:WALL-OUTER
G1 F900 X127.893 Y160.322 E29.34868
G1 X128.166 Y159.645 E29.39967
G1 X128.192 Y159.6 E29.4033
G1 X128.622 Y159.042 E29.4525
G1 X129.189 Y158.605 E29.5025
G1 X129.851 Y158.327 E29.55265
G1 X130.578 Y158.225 E29.60393
G1 X131.306 Y158.313 E29.65514
G1 X131.983 Y158.586 E29.70613
G1 X132.565 Y159.025 E29.75705
G1 X133.015 Y159.6 E29.80805
G1 F902.3 X133.3 Y160.271 E29.85884
G1 X133.403 Y160.998 E29.90999
G1 F900 X133.314 Y161.727 E29.96129
G1 X133.041 Y162.403 E30.01221
G1 X132.602 Y162.985 E30.06313
G1 X132.029 Y163.435 E30.11402
G1 F902.3 X131.357 Y163.72 E30.16487
G1 X130.631 Y163.823 E30.21596
G1 F900 X129.901 Y163.734 E30.26733
G1 X129.225 Y163.461 E30.31825
G1 X128.642 Y163.022 E30.36922
G1 X128.192 Y162.448 E30.42017
G1 X127.907 Y161.777 E30.47109
G1 X127.805 Y161.05 E30.52236
G0 F3600 X127.829 Y160.852
G0 X127.419 Y160.799
G0 X127.399 Y119.102
G0 X127.408 Y119.102
;TYPE:WALL-INNER
G1 F900 X127.496 Y118.27 E30.5808
G1 X127.796 Y117.492 E30.63904
G1 X128.287 Y116.818 E30.69728
G1 X128.936 Y116.295 E30.7555
G1 F902.3 X129.698 Y115.958 E30.81355
G1 F960 X130.529 Y115.852 E30.8684
G1 X131.358 Y115.918 E30.92286
G1 F904.5 X132.136 Y116.216 E30.98076
G1 F900 X132.809 Y116.708 E31.03899
G1 X133.333 Y117.356 E31.09719
G1 F902.3 X133.67 Y118.118 E31.15524
G1 F957.4 X133.776 Y118.949 E31.21025
G1 X133.71 Y119.779 E31.26491
G1 F904.5 X133.67 Y119.93 E31.27577
G1 F902.3 X133.411 Y120.556 E31.32297
G1 F900 X132.919 Y121.229 E31.3812
G1 X132.272 Y121.752 E31.4393
G1 X131.51 Y122.09 E31.49753
G1 X130.683 Y122.219 E31.55599
G1 X129.849 Y122.13 E31.61457
G1 X129.072 Y121.831 E31.67272
G1 X128.398 Y121.339 E31.73101
G1 X127.875 Y120.692 E31.78912
G1 X127.537 Y119.93 E31.84734
G1 X127.408 Y119.102 E31.90587
G0 F3600 X127.893 Y118.322
;TYPE:WALL-OUTER
G1 F900 X128.166 Y117.645 E31.95686
G1 X128.605 Y117.062 E32.00783
G1 X129.18 Y116.612 E32.05883
G1 F902.3 X129.851 Y116.327 E32.10962
G1 X130.578 Y116.225 E32.16077
G1 F900 X131.306 Y116.313 E32.21199
G1 X131.983 Y116.586 E32.26297
G1 X132.565 Y117.025 E32.31389
G1 X133.015 Y117.6 E32.36489
G1 F902.3 X133.3 Y118.271 E32.41568
G1 X133.403 Y118.998 E32.46684
G1 F900 X133.314 Y119.727 E32.51813
G1 F902.3 X133.3 Y119.777 E32.52175
G1 X133.041 Y120.403 E32.56895
G1 F900 X132.602 Y120.985 E32.61987
G1 X132.028 Y121.435 E32.67081
G1 X131.357 Y121.72 E32.72173
G1 X130.631 Y121.823 E32.77295
G1 X129.901 Y121.734 E32.82431
G1 X129.225 Y121.461 E32.87523
G1 X128.642 Y121.022 E32.92621
G1 X128.192 Y120.448 E32.97715
G1 X127.907 Y119.777 E33.02807
G1 X127.805 Y119.05 E33.07935
G1 X127.893 Y118.322 E33.13056
G0 F3600 X127.967 Y118.137
G0 X127.587 Y117.979
G0 X128.278 Y116.918
G0 X129.825 Y115.532
G0 X129.825 Y115.522
;TYPE:WALL-INNER
G1 F904.5 X127.996 Y115.524 E33.25767
G1 F900 X117.379 Y115.523 E33.99923
G1 F902.3 X113.379 Y115.523 E34.27792
G1 X109.379 Y115.523 E34.55661
G1 X105.379 Y115.523 E34.83529
G1 X101.379 Y115.523 E35.11398
G1 X97.379 Y115.523 E35.39267
G1 X93.379 Y115.523 E35.67135
G1 X89.379 Y115.523 E35.95004
G1 X85.379 Y115.523 E36.22873
G1 X81.379 Y115.523 E36.50741
G1 X77.379 Y115.523 E36.7861
G1 F904.5 X73.379 Y115.523 E37.06409
G1 X69.379 Y115.523 E37.34208
G1 X65.379 Y115.523 E37.62006
G1 X61.379 Y115.523 E37.89805
G1 X57.379 Y115.523 E38.17604
G1 X53.379 Y115.523 E38.45403
G1 X49.379 Y115.523 E38.73202
G1 X45.379 Y115.523 E39.01
G1 X41.379 Y115.523 E39.28799
G1 X37.379 Y115.522 E39.56598
G1 F957.4 X36.701 Y115.5 E39.61052
G1 X35.825 Y115.522 E39.66805
G1 F902.3 X33.102 Y115.522 E39.85777
G1 X33.101 Y118.245 E40.04748
G1 F957.4 X33.079 Y118.927 E40.09228
G1 X33.101 Y119.803 E40.14982
G1 F902.3 X33.103 Y121.978 E40.30135
G1 F900 X33.103 Y143.355 E41.79446
G1 F904.5 X33.102 Y144.245 E41.85631
G1 F960 X33.079 Y144.927 E41.90099
G1 X33.102 Y145.803 E41.95837
G1 F906.8 X33.102 Y148.171 E42.12253
G1 F902.3 X33.103 Y150.539 E42.28751
G1 F900 X33.103 Y164.525 E43.26438
G1 F902.3 X36.972 Y164.525 E43.53394
G1 X40.841 Y164.525 E43.8035
G1 X44.71 Y164.525 E44.07306
G1 X48.579 Y164.525 E44.34262
G1 X52.448 Y164.525 E44.61218
G1 X56.317 Y164.525 E44.88174
G1 X60.186 Y164.525 E45.1513
G1 X64.055 Y164.525 E45.42086
G1 X67.924 Y164.525 E45.69042
G1 X71.793 Y164.525 E45.95998
G1 X75.662 Y164.525 E46.22954
G1 X79.531 Y164.525 E46.4991
G1 X83.4 Y164.525 E46.76866
G1 F904.5 X87.269 Y164.525 E47.03754
G1 X91.138 Y164.525 E47.30643
G1 X95.007 Y164.525 E47.57531
G1 X98.876 Y164.525 E47.84419
G1 X102.745 Y164.525 E48.11308
G1 X106.614 Y164.525 E48.38196
G1 X110.483 Y164.525 E48.65085
G1 X114.352 Y164.525 E48.91973
G1 X118.221 Y164.525 E49.18861
G1 X122.09 Y164.525 E49.4575
G1 X125.959 Y164.525 E49.72638
G1 X129.828 Y164.526 E49.99527
G1 F960 X130.506 Y164.548 E50.03969
G1 X131.384 Y164.526 E50.0972
G1 F902.3 X134.105 Y164.525 E50.28677
G1 F900 X134.105 Y161.838 E50.47445
G1 F954.9 X134.128 Y161.122 E50.52161
G1 F957.4 X134.106 Y160.244 E50.57927
G1 F904.5 X134.106 Y156.393 E50.8469
G1 X134.106 Y152.542 E51.11454
G1 F902.3 X134.106 Y148.691 E51.38284
G1 X134.105 Y144.84 E51.65115
G1 F900 X134.105 Y119.838 E53.39745
G1 F954.9 X134.128 Y119.122 E53.4446
G1 F957.4 X134.106 Y118.244 E53.50227
G1 F902.3 X134.105 Y116.248 E53.64133
G1 F900 X134.105 Y115.523 E53.69197
G1 F902.3 X131.596 Y115.523 E53.86678
G1 F960 X130.701 Y115.5 E53.9254
G1 X129.825 Y115.522 E53.98278
G0 F3600 X129.825 Y115.532
G0 X33.082 Y115.502
G0 X32.702 Y115.122
;TYPE:WALL-OUTER
G1 F900 X32.703 Y145.803 E56.12574
G1 X32.703 Y164.925 E57.46134
G1 X134.505 Y164.925 E64.57183
G1 X134.505 Y116.248 E67.97174
G1 X134.505 Y115.123 E68.05031
G1 X129.825 Y115.124 E68.37719
G1 X128.935 Y115.123 E68.43936
G1 X127.996 Y115.124 E68.50494
G1 X117.379 Y115.123 E69.2465
G1 X32.702 Y115.122 E75.16087
G0 F3600 X32.702 Y115.322
G0 X33.082 Y115.502
G0 X34.075 Y116.388
;TYPE:SKIN
G1 F654.5 X34.63 Y115.978 E75.22714
G1 X33.557 Y115.977 E75.33019
G1 X33.557 Y117.024 E75.43074
G1 X34.075 Y116.388 E75.50952
G0 F3600 X33.557 Y118.208
G0 X34.123 Y142.444
G1 F900 X34.888 Y141.885 E75.5757
G1 X35.755 Y141.55 E75.64062
G1 X36.684 Y141.45 E75.70588
G1 X37.613 Y141.594 E75.77154
G1 X38.465 Y141.97 E75.83659
G1 X39.189 Y142.553 E75.90151
G1 X39.739 Y143.306 E75.96664
G1 X40.076 Y144.175 E76.03174
G1 X40.177 Y145.106 E76.09715
G1 X40.037 Y146.031 E76.1625
G1 X39.66 Y146.884 E76.22763
G1 X39.075 Y147.609 E76.2927
G1 X38.32 Y148.161 E76.35803
G1 X37.45 Y148.497 E76.42317
G1 X36.524 Y148.597 E76.48822
G1 X35.594 Y148.453 E76.55395
G1 X34.742 Y148.077 E76.619
G1 X34.022 Y147.502 E76.68336
G1 X33.484 Y146.767 E76.74698
G1 X33.483 Y164.145 E77.96077
G1 X128.896 Y164.146 E84.62501
G1 X128.698 Y164.05 E84.64038
G1 X128.022 Y163.502 E84.70116
G1 X127.464 Y162.738 E84.76724
G1 X127.13 Y161.873 E84.83201
G1 X127.03 Y160.944 E84.89727
G1 X127.171 Y160.017 E84.96276
G1 X127.549 Y159.162 E85.02805
G1 X128.134 Y158.437 E85.09312
G1 X128.887 Y157.886 E85.15829
G1 X129.759 Y157.55 E85.22356
G1 X130.683 Y157.451 E85.28847
G1 X131.613 Y157.594 E85.35419
G1 X132.466 Y157.971 E85.41933
G1 X133.183 Y158.543 E85.48339
G1 X133.727 Y159.288 E85.54783
G1 X133.726 Y120.729 E88.24103
G1 X133.629 Y120.93 E88.25662
G1 X133.084 Y121.602 E88.31705
G1 X132.321 Y122.162 E88.38316
G1 X131.454 Y122.497 E88.44808
G1 X130.524 Y122.597 E88.51341
G1 X129.597 Y122.456 E88.5789
G1 X128.742 Y122.078 E88.64419
G1 X128.018 Y121.493 E88.70921
G1 X127.466 Y120.742 E88.77431
G1 X127.13 Y119.869 E88.83964
G1 X127.031 Y118.945 E88.90455
G1 X127.172 Y118.018 E88.97004
G1 X127.55 Y117.162 E89.0354
G1 X128.123 Y116.445 E89.09951
G1 X128.863 Y115.903 E89.16357
G1 X38.313 Y115.901 E95.48816
G1 X38.511 Y115.997 E95.50353
G1 X39.183 Y116.543 E95.564
G1 X39.742 Y117.308 E95.63018
G1 X40.077 Y118.174 E95.69503
G1 X40.178 Y119.104 E95.76037
G1 X40.035 Y120.031 E95.82589
G1 X39.659 Y120.885 E95.89106
G1 X39.075 Y121.61 E95.95608
G1 X38.654 Y121.921 E95.99264
G1 X38.275 Y122.186 E96.02494
G1 X37.45 Y122.497 E96.08653
G1 X36.524 Y122.597 E96.15158
G1 X35.594 Y122.453 E96.21731
G1 X34.742 Y122.077 E96.28236
G1 X34.022 Y121.502 E96.34671
G1 X33.483 Y120.764 E96.41055
G1 X33.482 Y142.06 E97.89799
G1 X33.482 Y143.148 E97.97398
G1 X33.481 Y143.316 E97.98572
G1 X33.577 Y143.119 E98.00103
G1 X34.123 Y142.444 E98.06166
G0 F3600 X33.557 Y144.208
G0 X33.837 Y163.944
G1 F900 X33.683 Y163.79 E98.07688
G0 F3600 X33.683 Y163.224
G1 F900 X34.402 Y163.944 E98.14795
G0 F3600 X34.968 Y163.944
G1 F900 X33.683 Y162.659 E98.27488
G0 F3600 X33.683 Y162.093
G1 F900 X35.534 Y163.944 E98.45771
G0 F3600 X36.099 Y163.944
G1 F900 X33.683 Y161.527 E98.69641
G0 F3600 X33.683 Y160.962
G1 F900 X36.665 Y163.944 E98.99096
G0 F3600 X37.231 Y163.944
G1 F900 X33.683 Y160.396 E99.34143
G0 F3600 X33.683 Y159.83
G1 F900 X37.796 Y163.944 E99.74775
G0 F3600 X38.362 Y163.944
G1 F900 X33.683 Y159.265 E100.20993
G0 F3600 X33.683 Y158.699
G1 F900 X38.928 Y163.944 E100.72802
G0 F3600 X39.494 Y163.944
G1 F900 X33.683 Y158.133 E101.30201
