;FLAVOR:Marlin
;TIME:4953
;Filament used: 7.37575m
;Layer height: 0.3
;MINX:37.815
;MINY:85.434
;MINZ:0.3
;MAXX:100.705
;MAXY:169.314
;MAXZ:9.9
;Generated with Cura_SteamEngine 5.0.0
M140 S50
M105
M190 S50
M104 S215
M105
M109 S215
M82 ;absolute extrusion mode
G28 ; Auto home
G1 Z15 F300 ;Move up slightly
M107 ;Off fans
G90 ;Switch to absolute positioning
M82 ;Extruder absolute mode
G92 E0 ;Set position of extruder to 0
G0 X10 Y20 F1500 ;Move to X10 Y20 at 1500mms
G1 Z0.8 ;Move Z to 0.8
G1 F300 X180 E40 ;Extrude a line of filament
G1 F1200 Z2 ;Raise Z
G92 E0 ;Set extruder position to zero
G28 ;Auto home
G92 E0
G92 E0
G1 F3600 E-1.8
;LAYER_COUNT:33
;LAYER:0
M107
G0 X39.862 Y87.138 Z0.3
G0 X37.82 Y90.324
;TYPE:SKIRT
G1 F3600 E0
G1 F900 X37.829 Y89.819 E0.03528
G1 X37.916 Y89.321 E0.07059
G1 X38.082 Y88.843 E0.10593
G1 X38.32 Y88.397 E0.14124
G1 X38.626 Y87.994 E0.17658
G1 X38.991 Y87.645 E0.21186
G1 X39.407 Y87.357 E0.2472
G1 X39.862 Y87.138 E0.28246
G1 X40.347 Y86.994 E0.3178
G1 X40.959 Y86.924 E0.36083
G1 X41.543 Y86.914 E0.40162
G1 X53.39 Y86.914 E1.22909
G1 X55.797 Y86.886 E1.39722
G1 X67.556 Y86.886 E2.21855
G1 X70.353 Y86.846 E2.41393
G1 X73.07 Y86.731 E2.60387
G1 X75.816 Y86.536 E2.79615
G1 X78.522 Y86.268 E2.98608
G1 X81.251 Y85.919 E3.17824
G1 X84.036 Y85.482 E3.37514
G1 X84.761 Y85.435 E3.42589
G1 X96.86 Y85.434 E4.27096
G1 X97.552 Y85.444 E4.3193
G1 X98.056 Y85.492 E4.35466
G1 X98.545 Y85.617 E4.38991
G1 X99.009 Y85.819 E4.42526
G1 X99.435 Y86.091 E4.46056
G1 X99.813 Y86.427 E4.49588
G1 X100.134 Y86.818 E4.53122
G1 X100.388 Y87.254 E4.56646
G1 X100.571 Y87.726 E4.60182
G1 X100.678 Y88.22 E4.63713
G1 X100.705 Y88.725 E4.67245
G1 X100.652 Y89.227 E4.70771
G1 X100.494 Y89.788 E4.74841
G1 X100.312 Y90.264 E4.78401
G1 X99.647 Y91.924 E4.90891
G1 X98.705 Y94.484 E5.09944
G1 X97.836 Y97.069 E5.28992
G1 X97.031 Y99.707 E5.48256
G1 X96.31 Y102.334 E5.67283
G1 X95.656 Y105.012 E5.86538
G1 X95.078 Y107.713 E6.05831
G1 X94.589 Y110.346 E6.24536
G1 X94.165 Y113.065 E6.43756
G1 X93.819 Y115.794 E6.6297
G1 X93.55 Y118.533 E6.82193
G1 X93.359 Y121.25 E7.01217
G1 X93.247 Y123.96 E7.20161
G1 X93.21 Y126.716 E7.39413
G1 X93.251 Y129.467 E7.5863
G1 X93.369 Y132.185 E7.77632
G1 X93.565 Y134.93 E7.96853
G1 X93.837 Y137.64 E8.15877
G1 X94.187 Y140.36 E8.35032
G1 X94.613 Y143.06 E8.54123
G1 X95.117 Y145.76 E8.73308
G1 X95.693 Y148.423 E8.92338
G1 X96.351 Y151.102 E9.11606
G1 X97.075 Y153.719 E9.30571
G1 X97.884 Y156.356 E9.49837
G1 X98.754 Y158.928 E9.68801
G1 X99.705 Y161.498 E9.87941
G1 X100.479 Y163.439 E10.02537
G1 X100.628 Y163.922 E10.06067
G1 X100.7 Y164.423 E10.09602
G1 X100.692 Y164.928 E10.1313
G1 X100.604 Y165.426 E10.16662
G1 X100.439 Y165.904 E10.20194
G1 X100.201 Y166.35 E10.23725
G1 X99.895 Y166.753 E10.27259
G1 X99.53 Y167.102 E10.30787
G1 X99.115 Y167.39 E10.34315
G1 X98.659 Y167.609 E10.37848
G1 X98.174 Y167.753 E10.41382
G1 X97.626 Y167.822 E10.4524
G1 X96.766 Y167.854 E10.51251
G1 X94.006 Y167.997 E10.70554
G1 X91.262 Y168.216 E10.89781
G1 X88.554 Y168.509 E11.08806
G1 X85.852 Y168.88 E11.27855
G1 X83.504 Y169.263 E11.44472
G1 X82.759 Y169.313 E11.49687
G1 X70.673 Y169.314 E12.34103
G1 X67.986 Y169.286 E12.52872
G1 X56.13 Y169.286 E13.35682
G1 X53.723 Y169.314 E13.52495
G1 X41.664 Y169.314 E14.36722
G1 X40.972 Y169.305 E14.41556
G1 X40.469 Y169.258 E14.45085
G1 X39.979 Y169.133 E14.48617
G1 X39.515 Y168.932 E14.52149
G1 X39.089 Y168.661 E14.55675
G1 X38.71 Y168.326 E14.59208
G1 X38.389 Y167.935 E14.62742
G1 X38.134 Y167.499 E14.6627
G1 X37.95 Y167.028 E14.69802
G1 X37.843 Y166.534 E14.73332
G1 X37.815 Y166.029 E14.76865
G1 X37.867 Y165.526 E14.80397
G1 X38.027 Y164.958 E14.84518
G1 X38.234 Y164.418 E14.88558
G1 X38.864 Y162.848 E15.00373
G1 X39.794 Y160.324 E15.19161
G1 X40.682 Y157.688 E15.38589
G1 X41.468 Y155.114 E15.57387
G1 X42.207 Y152.428 E15.76845
G1 X42.848 Y149.809 E15.95678
G1 X43.436 Y147.069 E16.15251
G1 X43.924 Y144.443 E16.33907
G1 X44.354 Y141.69 E16.53369
G1 X44.696 Y139.002 E16.72295
G1 X44.966 Y136.282 E16.91386
G1 X45.158 Y133.546 E17.10543
G1 X45.272 Y130.826 E17.29558
G1 X45.31 Y128.071 E17.48803
G1 X45.27 Y125.321 E17.68012
G1 X45.154 Y122.604 E17.87007
G1 X44.959 Y119.861 E18.06214
G1 X44.688 Y117.149 E18.25251
G1 X44.339 Y114.428 E18.44412
G1 X43.914 Y111.728 E18.63502
G1 X43.412 Y109.034 E18.82643
G1 X42.83 Y106.341 E19.01887
G1 X42.191 Y103.734 E19.20635
G1 X41.456 Y101.068 E19.3995
G1 X40.647 Y98.43 E19.59223
G1 X39.775 Y95.849 E19.78251
G1 X38.82 Y93.265 E19.97493
G1 X38.041 Y91.308 E20.12205
G1 X37.892 Y90.825 E20.15735
G1 X37.82 Y90.324 E20.1927
G1 F3600 E18.3927
;MESH:WS Pole Clip.stl(2)
G0 X40.67 Y90.988
G0 X41.655 Y90.534
G0 X44.298 Y95.818
G1 F3600 E20.1927
G0 X44.289 Y95.82
;TYPE:WALL-INNER
G1 F900 X46.587 Y102.033 E20.65539
G1 X46.602 Y102.079 E20.65877
G1 X48.389 Y108.409 E21.11818
G1 X48.4 Y108.455 E21.12148
G1 X49.683 Y114.902 E21.58061
G1 X50.463 Y121.476 E22.043
G1 X50.467 Y121.523 E22.0463
G1 X50.725 Y128.113 E22.50693
G1 X50.467 Y134.704 E22.96764
G1 X50.463 Y134.751 E22.97094
G1 X49.686 Y141.312 E23.4324
G1 X48.4 Y147.774 E23.8926
G1 X48.389 Y147.819 E23.89584
G1 X46.603 Y154.149 E24.35522
G1 X46.588 Y154.194 E24.35854
G1 X44.316 Y160.343 E24.8164
G1 X41.936 Y165.513 E25.21393
G1 X53.399 Y165.514 E26.01458
G1 X53.399 Y95.229 E30.92373
G1 X53.399 Y90.714 E31.23908
G1 X41.937 Y90.714 E32.03966
G1 X44.271 Y95.777 E32.42906
G1 X44.289 Y95.82 E32.43232
G0 F3600 X43.914 Y95.959
;TYPE:WALL-OUTER
G1 F900 X46.217 Y102.187 E32.89611
G1 X48.008 Y108.533 E33.35667
G1 X49.293 Y114.996 E33.81692
G1 X50.067 Y121.539 E34.27711
G1 X50.325 Y128.121 E34.73719
G1 X50.066 Y134.704 E35.19734
G1 X49.291 Y141.248 E35.65761
G1 X48.004 Y147.711 E36.11789
G1 X46.213 Y154.056 E36.57838
G1 X43.952 Y160.176 E37.03408
G1 X41.312 Y165.913 E37.47518
G1 X53.799 Y165.914 E38.34735
G1 X53.799 Y95.229 E43.28444
G1 X53.799 Y90.314 E43.62773
G1 X41.312 Y90.314 E44.4999
G1 X43.914 Y95.959 E44.93405
G0 F3600 X43.983 Y96.146
G0 X44.622 Y95.631
;TYPE:SKIN
G1 F900 X46.947 Y101.909 E45.40165
G1 X48.761 Y108.32 E45.86702
G1 X50.058 Y114.841 E46.33141
G1 X50.842 Y121.448 E46.79612
G1 X51.105 Y128.089 E47.26033
G1 X50.846 Y134.734 E47.72481
G1 X50.066 Y141.339 E48.18935
G1 X48.77 Y147.864 E48.654
G1 X46.968 Y154.26 E49.11813
G1 X44.684 Y160.447 E49.57877
G1 X42.53 Y165.133 E49.939
G1 X53.019 Y165.133 E50.67161
G1 X53.019 Y95.23 E55.55408
G1 X53.019 Y91.094 E55.84296
G1 X42.532 Y91.095 E56.57544
G1 X44.622 Y95.631 E56.92428
G0 F3600 X52.819 Y91.851
G1 F900 X52.261 Y91.293 E56.9794
G0 F3600 X51.695 Y91.293
G1 F900 X52.819 Y92.417 E57.09042
G0 F3600 X52.819 Y92.983
G1 F900 X51.13 Y91.293 E57.25731
G0 F3600 X50.564 Y91.293
G1 F900 X52.819 Y93.548 E57.48005
G0 F3600 X52.819 Y94.114
G1 F900 X49.998 Y91.293 E57.7587
G0 F3600 X49.433 Y91.293
G1 F900 X52.819 Y94.68 E58.09321
G0 F3600 X52.819 Y95.245
G1 F900 X48.867 Y91.293 E58.48358
G0 F3600 X48.301 Y91.293
G1 F900 X52.819 Y95.811 E58.92986
G0 F3600 X52.819 Y96.377
G1 F900 X47.736 Y91.294 E59.43194
G0 F3600 X47.171 Y91.294
G1 F900 X52.819 Y96.942 E59.98984
G0 F3600 X52.819 Y97.508
G1 F900 X46.605 Y91.294 E60.60364
G0 F3600 X46.039 Y91.294
G1 F900 X52.819 Y98.074 E61.27335
G0 F3600 X52.819 Y98.639
G1 F900 X45.474 Y91.294 E61.99888
G0 F3600 X44.908 Y91.294
G1 F900 X52.819 Y99.205 E62.78031
G0 F3600 X52.819 Y99.771
G1 F900 X44.342 Y91.294 E63.61764
G0 F3600 X43.776 Y91.294
G1 F900 X52.819 Y100.337 E64.51089
G0 F3600 X52.819 Y100.902
G1 F900 X43.211 Y91.294 E65.45994
G0 F3600 X43.012 Y91.661
G1 F900 X52.819 Y101.468 E66.42865
G0 F3600 X52.819 Y102.034
G1 F900 X43.496 Y92.711 E67.34956
G1 X43.426 Y92.641
G0 F3600 X43.98 Y93.76
G1 F900 X52.819 Y102.599 E68.22265
G0 F3600 X52.819 Y103.165
G1 F900 X44.464 Y94.81 E69.04794
G1 X44.394 Y94.74
G0 F3600 X44.901 Y95.813
G1 F900 X52.819 Y103.731 E69.83006
G0 F3600 X52.819 Y104.296
G1 F900 X45.235 Y96.712 E70.57919
G1 X45.165 Y96.642
G0 F3600 X45.568 Y97.611
G1 F900 X52.819 Y104.862 E71.29542
G0 F3600 X52.819 Y105.428
G1 F900 X45.901 Y98.509 E71.97882
G1 X45.831 Y98.439
G0 F3600 X46.234 Y99.408
G1 F900 X52.819 Y105.993 E72.62927
G0 F3600 X52.819 Y106.559
G1 F900 X46.567 Y100.307 E73.24682
G1 X46.497 Y100.237
G0 F3600 X46.9 Y101.206
G1 F900 X52.819 Y107.125 E73.83149
G0 F3600 X52.819 Y107.69
G1 F900 X47.199 Y102.07 E74.38662
G1 X47.129 Y102
G0 F3600 X47.422 Y102.859
G1 F900 X52.819 Y108.256 E74.91972
G0 F3600 X52.819 Y108.822
G1 F900 X47.646 Y103.649 E75.4307
G1 X47.576 Y103.579
G0 F3600 X47.869 Y104.438
G1 F900 X52.819 Y109.388 E75.91965
G0 F3600 X52.819 Y109.953
G1 F900 X48.093 Y105.227 E76.38647
G1 X48.023 Y105.157
G0 F3600 X48.316 Y106.016
G1 F900 X52.819 Y110.519 E76.83126
G0 F3600 X52.819 Y111.085
G1 F900 X48.54 Y106.805 E77.25398
G1 X48.47 Y106.735
G0 F3600 X48.763 Y107.594
G1 F900 X52.819 Y111.65 E77.65463
G0 F3600 X52.819 Y112.216
G1 F900 X48.972 Y108.369 E78.03462
G0 F3600 X49.113 Y109.076
G1 F900 X52.819 Y112.782 E78.40069
G0 F3600 X52.819 Y113.347
G1 F900 X49.254 Y109.783 E78.75278
G0 F3600 X49.395 Y110.489
G1 F900 X52.819 Y113.913 E79.091
G0 F3600 X52.819 Y114.479
G1 F900 X49.536 Y111.196 E79.41529
G0 F3600 X49.677 Y111.902
G1 F900 X52.819 Y115.044 E79.72565
G0 F3600 X52.819 Y115.61
G1 F900 X49.817 Y112.608 E80.02218
G0 F3600 X49.958 Y113.315
G1 F900 X52.819 Y116.176 E80.30478
G0 F3600 X52.819 Y116.741
G1 F900 X50.099 Y114.021 E80.57345
G0 F3600 X50.24 Y114.728
G1 F900 X52.819 Y117.307 E80.8282
G0 F3600 X52.819 Y117.873
G1 F900 X50.321 Y115.375 E81.07495
G0 F3600 X50.398 Y116.017
G1 F900 X52.819 Y118.438 E81.31409
G0 F3600 X52.819 Y119.004
G1 F900 X50.474 Y116.659 E81.54572
G0 F3600 X50.551 Y117.301
G1 F900 X52.819 Y119.57 E81.7698
G0 F3600 X52.819 Y120.136
G1 F900 X50.627 Y117.943 E81.98637
G0 F3600 X50.704 Y118.586
G1 F900 X52.819 Y120.701 E82.19528
G0 F3600 X52.819 Y121.267
G1 F900 X50.78 Y119.228 E82.39669
G0 F3600 X50.857 Y119.87
G1 F900 X52.819 Y121.833 E82.59054
G0 F3600 X52.819 Y122.398
G1 F900 X50.933 Y120.512 E82.77683
G0 F3600 X51.009 Y121.154
G1 F900 X52.819 Y122.964 E82.95562
G0 F3600 X52.819 Y123.53
G1 F900 X51.054 Y121.765 E83.12996
G0 F3600 X51.077 Y122.354
G1 F900 X52.819 Y124.095 E83.30199
G0 F3600 X52.819 Y124.661
G1 F900 X51.101 Y122.943 E83.47169
G0 F3600 X51.124 Y123.532
G1 F900 X52.819 Y125.227 E83.63911
G0 F3600 X52.819 Y125.792
G1 F900 X51.147 Y124.121 E83.80422
G0 F3600 X51.171 Y124.71
G1 F900 X52.819 Y126.358 E83.96701
G0 F3600 X52.819 Y126.924
G1 F900 X51.194 Y125.299 E84.12752
G0 F3600 X51.217 Y125.888
G1 F900 X52.819 Y127.489 E84.28571
G0 F3600 X52.819 Y128.055
G1 F900 X51.241 Y126.477 E84.44158
G0 F3600 X51.264 Y127.066
G1 F900 X52.819 Y128.621 E84.59518
G0 F3600 X52.819 Y129.186
G1 F900 X51.288 Y127.656 E84.74636
G0 F3600 X51.297 Y128.23
G1 F900 X52.819 Y129.752 E84.8967
G0 F3600 X52.819 Y130.318
G1 F900 X51.277 Y128.776 E85.04901
G0 F3600 X51.256 Y129.32
G1 F900 X52.819 Y130.884 E85.20345
G0 F3600 X52.819 Y131.449
G1 F900 X51.234 Y129.865 E85.35997
G0 F3600 X51.213 Y130.409
G1 F900 X52.819 Y132.015 E85.5186
G0 F3600 X52.819 Y132.581
G1 F900 X51.193 Y130.954 E85.67927
G0 F3600 X51.171 Y131.499
G1 F900 X52.819 Y133.146 E85.842
G0 F3600 X52.819 Y133.712
G1 F900 X51.15 Y132.043 E86.00686
G0 F3600 X51.129 Y132.588
G1 F900 X52.819 Y134.278 E86.1738
G0 F3600 X52.819 Y134.843
G1 F900 X51.108 Y133.132 E86.3428
G0 F3600 X51.087 Y133.677
G1 F900 X52.819 Y135.409 E86.51389
G0 F3600 X52.819 Y135.975
G1 F900 X51.066 Y134.222 E86.68704
G0 F3600 X51.042 Y134.763
G1 F900 X52.819 Y136.54 E86.86257
G0 F3600 X52.819 Y137.106
G1 F900 X50.983 Y135.27 E87.04393
G0 F3600 X50.923 Y135.775
G1 F900 X52.819 Y137.672 E87.23126
G0 F3600 X52.819 Y138.237
G1 F900 X50.863 Y136.282 E87.42442
G0 F3600 X50.803 Y136.787
G1 F900 X52.819 Y138.803 E87.62355
G0 F3600 X52.819 Y139.369
G1 F900 X50.744 Y137.293 E87.82857
G0 F3600 X50.684 Y137.8
G1 F900 X52.819 Y139.935 E88.03946
G0 F3600 X52.819 Y140.5
G1 F900 X50.624 Y138.305 E88.25627
G0 F3600 X50.565 Y138.812
G1 F900 X52.819 Y141.066 E88.47892
G0 F3600 X52.819 Y141.632
G1 F900 X50.505 Y139.318 E88.70749
G0 F3600 X50.445 Y139.824
G1 F900 X52.819 Y142.197 E88.94194
G0 F3600 X52.819 Y142.763
G1 F900 X50.386 Y140.33 E89.18226
G0 F3600 X50.326 Y140.836
G1 F900 X52.819 Y143.329 E89.42852
G0 F3600 X52.819 Y143.894
G1 F900 X50.266 Y141.342 E89.68065
G0 F3600 X50.173 Y141.814
G1 F900 X52.819 Y144.46 E89.94201
G0 F3600 X52.819 Y145.026
G1 F900 X50.08 Y142.286 E90.21261
G0 F3600 X49.986 Y142.758
G1 F900 X52.819 Y145.591 E90.49245
G0 F3600 X52.819 Y146.157
G1 F900 X49.892 Y143.23 E90.78157
G0 F3600 X49.799 Y143.703
G1 F900 X52.819 Y146.723 E91.07988
G0 F3600 X52.819 Y147.288
G1 F900 X49.705 Y144.174 E91.38747
G0 F3600 X49.612 Y144.647
G1 F900 X52.819 Y147.854 E91.70425
G0 F3600 X52.819 Y148.42
G1 F900 X49.517 Y145.118 E92.03042
G0 F3600 X49.424 Y145.591
G1 F900 X52.819 Y148.985 E92.36572
G0 F3600 X52.819 Y149.551
G1 F900 X49.331 Y146.063 E92.71025
G0 F3600 X49.237 Y146.535
G1 F900 X52.819 Y150.117 E93.06407
G0 F3600 X52.819 Y150.683
G1 F900 X49.143 Y147.007 E93.42718
G0 F3600 X49.049 Y147.479
G1 F900 X52.819 Y151.248 E93.79952
G0 F3600 X52.819 Y151.814
G1 F900 X48.952 Y147.947 E94.18149
G0 F3600 X48.827 Y148.388
G1 F900 X52.819 Y152.38 E94.57581
G0 F3600 X52.819 Y152.945
G1 F900 X48.704 Y148.83 E94.98228
G0 F3600 X48.579 Y149.271
G1 F900 X52.819 Y153.511 E95.4011
G0 F3600 X52.819 Y154.077
G1 F900 X48.455 Y149.712 E95.83222
G0 F3600 X48.331 Y150.154
G1 F900 X52.819 Y154.642 E96.27553
G0 F3600 X52.819 Y155.208
G1 F900 X48.207 Y150.596 E96.73109
G0 F3600 X48.083 Y151.038
G1 F900 X52.819 Y155.774 E97.1989
G0 F3600 X52.819 Y156.339
G1 F900 X47.958 Y151.479 E97.67901
G0 F3600 X47.834 Y151.92
G1 F900 X52.819 Y156.905 E98.17142
G0 F3600 X52.819 Y157.471
G1 F900 X47.71 Y152.362 E98.67607
G0 F3600 X47.586 Y152.803
G1 F900 X52.819 Y158.036 E99.19297
G0 F3600 X52.819 Y158.602
G1 F900 X47.461 Y153.244 E99.72222
G0 F3600 X47.337 Y153.686
G1 F900 X52.819 Y159.168 E100.26372
G0 F3600 X52.819 Y159.734
G1 F900 X47.213 Y154.128 E100.81747
G0 F3600 X47.072 Y154.552
G1 F900 X52.819 Y160.299 E101.38514
G0 F3600 X52.819 Y160.865
G1 F900 X46.919 Y154.965 E101.96793
G0 F3600 X46.767 Y155.378
G1 F900 X52.819 Y161.431 E102.56578
G0 F3600 X52.819 Y161.996
G1 F900 X46.614 Y155.791 E103.1787
G0 F3600 X46.462 Y156.205
G1 F900 X52.819 Y162.562 E103.80663
G0 F3600 X52.819 Y163.128
G1 F900 X46.309 Y156.618 E104.44967
G0 F3600 X46.157 Y157.031
G1 F900 X52.819 Y163.693 E105.10773
G0 F3600 X52.819 Y164.259
G1 F900 X46.005 Y157.445 E105.7808
G0 F3600 X45.852 Y157.858
G1 F900 X52.819 Y164.825 E106.46898
G0 F3600 X52.36 Y164.931
G1 F900 X45.7 Y158.271 E107.12684
G0 F3600 X45.547 Y158.684
G1 F900 X51.794 Y164.931 E107.7439
G0 F3600 X51.229 Y164.931
G1 F900 X45.394 Y159.097 E108.32022
G0 F3600 X45.242 Y159.511
G1 F900 X50.663 Y164.931 E108.85564
G0 F3600 X50.097 Y164.931
G1 F900 X45.09 Y159.924 E109.35022
G0 F3600 X44.938 Y160.337
G1 F900 X49.532 Y164.931 E109.80401
G0 F3600 X48.966 Y164.931
G1 F900 X44.769 Y160.735 E110.21853
G0 F3600 X44.591 Y161.122
G1 F900 X48.4 Y164.931 E110.59477
G0 F3600 X47.835 Y164.931
G1 F900 X44.413 Y161.51 E110.93274
G0 F3600 X44.235 Y161.898
G1 F900 X47.269 Y164.931 E111.23238
G0 F3600 X46.703 Y164.931
G1 F900 X44.057 Y162.285 E111.49374
G0 F3600 X43.879 Y162.673
G1 F900 X46.138 Y164.931 E111.71683
G0 F3600 X45.572 Y164.931
G1 F900 X43.701 Y163.06 E111.90165
G0 F3600 X43.523 Y163.448
G1 F900 X45.006 Y164.931 E112.04813
G0 F3600 X44.44 Y164.931
G1 F900 X43.345 Y163.836 E112.15629
G0 F3600 X43.167 Y164.224
G1 F900 X43.875 Y164.931 E112.22618
