;FLAVOR:Marlin
;TIME:7124
;Filament used: 10.6853m
;Layer height: 0.3
;MINX:31.422
;MINY:67.789
;MINZ:0.3
;MAXX:136.853
;MAXY:151.359
;MAXZ:9.9
;Generated with Cura_SteamEngine 5.0.0
M140 S50
M105
M190 S50
M104 S215
M105
M109 S215
M82 ;absolute extrusion mode
G28 ; Auto home
G1 Z15 F300 ;Move up slightly
M107 ;Off fans
G90 ;Switch to absolute positioning
M82 ;Extruder absolute mode
G92 E0 ;Set position of extruder to 0
G0 X10 Y20 F1500 ;Move to X10 Y20 at 1500mms
G1 Z0.8 ;Move Z to 0.8
G1 F300 X180 E40 ;Extrude a line of filament
G1 F1200 Z2 ;Raise Z
G92 E0 ;Set extruder position to zero
G28 ;Auto home
G92 E0
G92 E0
G1 F3600 E-1.8
;LAYER_COUNT:33
;LAYER:0
M107
G0 X42.113 Y69.394 Z0.3
G0 X38.519 Y75.945
;TYPE:SKIRT
G1 F3600 E0
G1 F900 X39.197 Y74.434 E0.11568
G1 X39.915 Y72.91 E0.23334
G1 X40.659 Y71.407 E0.35048
G1 X41.121 Y70.525 E0.42002
G1 X41.391 Y70.097 E0.45537
G1 X41.724 Y69.717 E0.49066
G1 X42.113 Y69.394 E0.52598
G1 X42.548 Y69.136 E0.5613
G1 X43.018 Y68.951 E0.59658
G1 X43.512 Y68.841 E0.63193
G1 X44.472 Y68.8 E0.69904
G1 X48.291 Y68.8 E0.96579
G1 X49.92 Y68.823 E1.07958
G1 X56.197 Y68.83 E1.518
G1 X57.147 Y68.849 E1.58437
G1 X59.689 Y68.993 E1.7622
G1 X62.438 Y69.07 E1.95429
G1 X65.156 Y69.07 E2.14413
G1 X67.911 Y68.991 E2.33663
G1 X70.66 Y68.835 E2.52895
G1 X73.334 Y68.608 E2.71639
G1 X76.108 Y68.293 E2.91139
G1 X78.348 Y67.979 E3.06937
G1 X79.3 Y67.835 E3.13663
G1 X80.317 Y67.789 E3.20773
G1 X84.115 Y67.789 E3.47301
G1 X84.825 Y67.8 E3.5226
G1 X85.991 Y67.952 E3.60473
G1 X87.247 Y68.166 E3.69373
G1 X89.984 Y68.557 E3.88684
G1 X92.685 Y68.866 E4.07672
G1 X95.393 Y69.098 E4.26656
G1 X98.141 Y69.254 E4.4588
G1 X100.894 Y69.333 E4.65117
G1 X103.61 Y69.335 E4.84087
G1 X106.362 Y69.258 E5.03316
G1 X109.101 Y69.104 E5.22478
G1 X111.411 Y68.913 E5.38667
G1 X112.464 Y68.813 E5.46055
G1 X113.318 Y68.789 E5.52022
G1 X117.125 Y68.789 E5.78613
G1 X119.6 Y68.759 E5.95901
G1 X123.665 Y68.759 E6.24293
G1 X124.366 Y68.769 E6.2919
G1 X124.869 Y68.816 E6.32719
G1 X125.359 Y68.942 E6.36253
G1 X125.822 Y69.144 E6.39781
G1 X126.249 Y69.416 E6.43317
G1 X126.627 Y69.751 E6.46845
G1 X126.947 Y70.142 E6.50374
G1 X127.408 Y70.959 E6.56926
G1 X128.134 Y72.401 E6.68202
G1 X128.846 Y73.89 E6.7973
G1 X129.516 Y75.359 E6.91007
G1 X130.192 Y76.922 E7.02902
G1 X130.814 Y78.446 E7.14399
G1 X131.393 Y79.94 E7.2559
G1 X131.959 Y81.489 E7.37109
G1 X132.494 Y83.047 E7.48615
G1 X133.006 Y84.636 E7.60275
G1 X133.468 Y86.174 E7.71492
G1 X133.895 Y87.691 E7.82499
G1 X134.327 Y89.352 E7.94487
G1 X134.722 Y91.012 E8.06405
G1 X135.06 Y92.562 E8.17485
G1 X135.379 Y94.168 E8.28922
G1 X135.674 Y95.825 E8.40677
G1 X135.921 Y97.381 E8.51681
G1 X136.151 Y99.036 E8.63352
G1 X136.353 Y100.724 E8.75226
G1 X136.513 Y102.325 E8.86464
G1 X136.641 Y103.924 E8.97669
G1 X136.741 Y105.57 E9.09186
G1 X136.808 Y107.147 E9.20211
G1 X136.848 Y108.868 E9.32235
G1 X136.853 Y110.535 E9.43878
G1 X136.828 Y112.103 E9.54832
G1 X136.768 Y113.794 E9.6665
G1 X136.677 Y115.456 E9.78276
G1 X136.558 Y117.07 E9.8958
G1 X136.403 Y118.724 E10.01183
G1 X136.217 Y120.367 E10.12732
G1 X136.008 Y121.946 E10.23857
G1 X135.769 Y123.521 E10.34984
G1 X135.476 Y125.227 E10.47074
G1 X135.179 Y126.782 E10.58131
G1 X134.823 Y128.458 E10.70099
G1 X134.461 Y130.018 E10.81284
G1 X134.062 Y131.597 E10.9266
G1 X133.65 Y133.114 E11.03639
G1 X133.163 Y134.772 E11.15709
G1 X132.69 Y136.278 E11.26734
G1 X132.154 Y137.874 E11.38494
G1 X131.602 Y139.417 E11.4994
G1 X131.017 Y140.96 E11.61466
G1 X130.397 Y142.505 E11.73093
G1 X129.762 Y143.999 E11.84432
G1 X129.07 Y145.547 E11.96275
G1 X128.369 Y147.034 E12.07758
G1 X127.686 Y148.415 E12.18519
G1 X127.159 Y149.427 E12.26488
G1 X126.891 Y149.856 E12.30021
G1 X126.559 Y150.237 E12.33551
G1 X126.17 Y150.56 E12.37082
G1 X125.736 Y150.819 E12.40612
G1 X125.266 Y151.006 E12.44145
G1 X124.773 Y151.117 E12.47675
G1 X123.781 Y151.159 E12.5461
G1 X119.973 Y151.159 E12.81208
G1 X117.498 Y151.189 E12.98496
G1 X113.434 Y151.189 E13.26881
G1 X112.555 Y151.171 E13.33022
G1 X111.849 Y151.12 E13.37966
G1 X110.403 Y150.997 E13.48102
G1 X107.653 Y150.84 E13.67341
G1 X104.901 Y150.761 E13.86571
G1 X102.182 Y150.761 E14.05562
G1 X99.431 Y150.838 E14.24784
G1 X96.715 Y150.991 E14.43785
G1 X93.93 Y151.227 E14.63307
G1 X92.83 Y151.334 E14.71026
G1 X91.981 Y151.359 E14.76958
G1 X88.184 Y151.359 E15.03479
G1 X87.472 Y151.348 E15.08453
G1 X87.064 Y151.315 E15.11312
G1 X84.093 Y150.887 E15.32277
G1 X81.386 Y150.579 E15.51307
G1 X78.674 Y150.347 E15.70318
G1 X75.924 Y150.189 E15.89558
G1 X73.173 Y150.11 E16.0878
G1 X70.456 Y150.108 E16.27758
G1 X67.702 Y150.185 E16.47001
G1 X64.992 Y150.337 E16.65959
G1 X62.241 Y150.57 E16.85242
G1 X59.504 Y150.879 E17.04481
G1 X57.285 Y151.188 E17.20129
G1 X56.278 Y151.229 E17.27168
G1 X52.505 Y151.229 E17.53521
G1 X50.876 Y151.206 E17.64901
G1 X44.607 Y151.2 E18.08687
G1 X43.905 Y151.189 E18.13591
G1 X43.402 Y151.141 E18.1712
G1 X42.912 Y151.014 E18.20656
G1 X42.449 Y150.812 E18.24184
G1 X42.023 Y150.54 E18.27714
G1 X41.645 Y150.204 E18.31247
G1 X41.325 Y149.812 E18.34781
G1 X40.849 Y148.962 E18.41586
G1 X40.142 Y147.558 E18.52565
G1 X39.43 Y146.069 E18.64093
G1 X38.76 Y144.599 E18.75377
G1 X38.089 Y143.047 E18.87187
G1 X37.485 Y141.575 E18.983
G1 X36.892 Y140.046 E19.09754
G1 X36.324 Y138.492 E19.21311
G1 X35.781 Y136.911 E19.32987
G1 X35.303 Y135.43 E19.43856
G1 X34.798 Y133.75 E19.56109
G1 X34.34 Y132.115 E19.67969
G1 X33.943 Y130.58 E19.79043
G1 X33.583 Y129.073 E19.89865
G1 X33.214 Y127.392 E20.01886
G1 X32.908 Y125.854 E20.12838
G1 X32.597 Y124.109 E20.25219
G1 X32.356 Y122.589 E20.35968
G1 X32.119 Y120.887 E20.47971
G1 X31.931 Y119.314 E20.59036
G1 X31.767 Y117.674 E20.70547
G1 X31.63 Y115.973 E20.82467
G1 X31.533 Y114.379 E20.93621
G1 X31.466 Y112.785 E21.04764
G1 X31.427 Y111.091 E21.16599
G1 X31.422 Y109.424 E21.28243
G1 X31.447 Y107.852 E21.39224
G1 X31.506 Y106.181 E21.50903
G1 X31.596 Y104.533 E21.6243
G1 X31.715 Y102.927 E21.73678
G1 X31.869 Y101.273 E21.85281
G1 X32.045 Y99.702 E21.96322
G1 X32.274 Y97.967 E22.08546
G1 X32.513 Y96.397 E22.19638
G1 X32.797 Y94.744 E22.31353
G1 X33.089 Y93.22 E22.42191
G1 X33.445 Y91.532 E22.5424
G1 X33.815 Y89.938 E22.6567
G1 X34.222 Y88.33 E22.77255
G1 X34.648 Y86.767 E22.88571
G1 X35.109 Y85.201 E22.99973
G1 X35.578 Y83.704 E23.1093
G1 X36.123 Y82.083 E23.22875
G1 X36.667 Y80.557 E23.3419
G1 X37.265 Y78.982 E23.45957
G1 X37.884 Y77.441 E23.57556
G1 X38.519 Y75.945 E23.68908
G1 F3600 E21.88908
;MESH:Clip mount.stl
G0 X40.631 Y77.442
G0 X41.633 Y77.882
G0 X43.799 Y83.39
G1 F3600 E23.68908
G0 X43.799 Y83.419
;TYPE:WALL-INNER
G1 F900 X44.817 Y83.4 E23.76019
G1 X48.35 Y83.4 E24.00696
G1 X48.35 Y72.6 E24.7613
G1 X44.316 Y72.6 E25.04306
G1 X43.761 Y73.689 E25.12843
G1 X43.066 Y75.12 E25.23955
G1 X42.412 Y76.539 E25.34868
G1 X41.781 Y77.975 E25.45823
G1 X41.17 Y79.438 E25.56897
G1 X40.608 Y80.868 E25.67629
G1 X40.061 Y82.339 E25.78591
G1 X39.828 Y83.002 E25.83499
G1 X39.542 Y83.821 E25.89558
G1 X39.052 Y85.314 E26.00534
G1 X38.59 Y86.815 E26.11503
G1 X38.157 Y88.325 E26.22475
G1 X37.75 Y89.856 E26.3354
G1 X37.379 Y91.369 E26.4442
G1 X37.033 Y92.902 E26.55397
G1 X36.719 Y94.439 E26.66354
G1 X36.433 Y95.984 E26.77329
G1 X36.179 Y97.53 E26.88272
G1 X35.953 Y99.086 E26.99254
G1 X35.758 Y100.642 E27.10207
G1 X35.591 Y102.219 E27.21283
G1 X35.458 Y103.765 E27.32121
G1 X35.352 Y105.333 E27.43098
G1 X35.277 Y106.902 E27.5407
G1 X35.232 Y108.471 E27.65033
G1 X35.218 Y110.038 E27.75979
G1 X35.233 Y111.606 E27.86931
G1 X35.278 Y113.135 E27.97615
G1 X35.356 Y114.742 E28.08853
G1 X35.462 Y116.305 E28.19795
G1 X35.599 Y117.865 E28.30733
G1 X35.766 Y119.426 E28.41698
G1 X35.962 Y120.983 E28.52659
G1 X36.183 Y122.5 E28.63366
G1 X36.445 Y124.083 E28.74573
G1 X36.731 Y125.618 E28.85479
G1 X37.047 Y127.158 E28.9646
G1 X37.391 Y128.684 E29.07386
G1 X37.766 Y130.207 E29.18341
G1 X38.169 Y131.721 E29.29284
G1 X38.597 Y133.211 E29.40112
G1 X39.062 Y134.725 E29.51174
G1 X39.551 Y136.212 E29.62107
G1 X40.07 Y137.692 E29.73062
G1 X40.606 Y139.127 E29.83761
G1 X41.199 Y140.63 E29.95047
G1 X41.799 Y142.067 E30.05923
G1 X42.434 Y143.512 E30.16948
G1 X43.094 Y144.937 E30.27916
G1 X43.777 Y146.341 E30.38822
G1 X44.319 Y147.4 E30.47131
G1 X48.35 Y147.4 E30.75286
G1 X48.35 Y140.132 E31.2605
G1 X48.35 Y136.6 E31.5072
G1 X43.938 Y136.6 E31.81536
G1 X43.654 Y136.523 E31.83591
G1 X43.432 Y136.304 E31.85769
G1 X43.35 Y136 E31.87969
G1 X43.35 Y84 E35.51169
G1 X43.41 Y83.736 E35.5306
G1 X43.517 Y83.584 E35.54359
G1 X43.799 Y83.419 E35.56641
G0 F3600 X43.799 Y83.39
G0 X43.412 Y136.538
G0 X43.946 Y136.2
;TYPE:WALL-OUTER
G1 F900 X43.805 Y136.139 E35.57714
G1 X43.75 Y136 E35.58758
G1 X43.75 Y84 E39.21958
G1 X43.805 Y83.861 E39.23002
G1 X43.95 Y83.8 E39.24101
G1 X48.75 Y83.8 E39.57627
G1 X48.75 Y72.2 E40.38649
G1 X44.071 Y72.2 E40.7133
G1 X43.401 Y73.514 E40.81632
G1 X42.703 Y74.952 E40.92797
G1 X42.058 Y76.349 E41.03544
G1 X41.439 Y77.757 E41.14287
G1 X40.81 Y79.26 E41.25667
G1 X40.233 Y80.728 E41.36684
G1 X39.683 Y82.207 E41.47706
G1 X39.162 Y83.695 E41.58717
G1 X38.67 Y85.196 E41.6975
G1 X38.206 Y86.705 E41.80777
G1 X37.771 Y88.222 E41.918
G1 X37.362 Y89.76 E42.02915
G1 X36.989 Y91.281 E42.13854
G1 X36.641 Y92.822 E42.24888
G1 X36.326 Y94.366 E42.35894
G1 X36.039 Y95.919 E42.46925
G1 X35.783 Y97.472 E42.57919
G1 X35.556 Y99.036 E42.68957
G1 X35.36 Y100.6 E42.79967
G1 X35.196 Y102.144 E42.90812
G1 X35.059 Y103.738 E43.01986
G1 X34.952 Y105.313 E43.13012
G1 X34.877 Y106.89 E43.24039
G1 X34.832 Y108.467 E43.35059
G1 X34.818 Y110.042 E43.4606
G1 X34.833 Y111.618 E43.57068
G1 X34.878 Y113.151 E43.6778
G1 X34.954 Y114.727 E43.78801
G1 X35.064 Y116.339 E43.90086
G1 X35.201 Y117.907 E44.0108
G1 X35.364 Y119.436 E44.1182
G1 X35.566 Y121.041 E44.23119
G1 X35.788 Y122.562 E44.33855
G1 X36.051 Y124.156 E44.45139
G1 X36.339 Y125.698 E44.56095
G1 X36.657 Y127.246 E44.67133
G1 X37.003 Y128.779 E44.7811
G1 X37.38 Y130.309 E44.89116
G1 X37.785 Y131.831 E45.00117
G1 X38.215 Y133.328 E45.10996
G1 X38.682 Y134.85 E45.22115
G1 X39.173 Y136.344 E45.33099
G1 X39.695 Y137.832 E45.44114
G1 X40.248 Y139.31 E45.55136
G1 X40.829 Y140.784 E45.66202
G1 X41.433 Y142.228 E45.77135
G1 X42.071 Y143.68 E45.88212
G1 X42.734 Y145.112 E45.99234
G1 X43.399 Y146.48 E46.09858
G1 X44.074 Y147.8 E46.20213
G1 X48.75 Y147.8 E46.52873
G1 X48.75 Y140.132 E47.06432
G1 X48.75 Y136.2 E47.33895
G1 X43.946 Y136.2 E47.67449
G0 F3600 X43.805 Y136.139
G0 X43.788 Y136.096
G0 X43.34 Y136.096
G0 X43.412 Y83.462
G0 X43.513 Y83.125
;TYPE:SKIN
G1 F900 X43.976 Y83.02 E47.70765
G1 X47.97 Y83.02 E47.98662
G1 X47.97 Y72.98 E48.68788
G1 X44.548 Y72.98 E48.92689
G1 X44.111 Y73.84 E48.99427
G1 X43.423 Y75.257 E49.10429
G1 X42.771 Y76.668 E49.21286
G1 X42.166 Y78.046 E49.31797
G1 X41.576 Y79.454 E49.4246
G1 X40.971 Y80.986 E49.53965
G1 X40.425 Y82.451 E49.64885
G1 X39.909 Y83.924 E49.75786
G1 X39.426 Y85.392 E49.8658
G1 X38.974 Y86.863 E49.97329
G1 X38.533 Y88.399 E50.0849
G1 X38.127 Y89.921 E50.19493
G1 X37.758 Y91.426 E50.30316
G1 X37.415 Y92.947 E50.41206
G1 X37.099 Y94.481 E50.52146
G1 X36.815 Y96.013 E50.63029
G1 X36.561 Y97.552 E50.73923
G1 X36.34 Y99.067 E50.84617
G1 X36.141 Y100.65 E50.95761
G1 X35.974 Y102.217 E51.06768
G1 X35.841 Y103.756 E51.17557
G1 X35.735 Y105.315 E51.28471
G1 X35.659 Y106.877 E51.39394
G1 X35.614 Y108.438 E51.50302
G1 X35.598 Y109.997 E51.61191
G1 X35.613 Y111.555 E51.72074
G1 X35.657 Y113.118 E51.82995
G1 X35.733 Y114.679 E51.93911
G1 X35.837 Y116.201 E52.04566
G1 X35.974 Y117.79 E52.15706
G1 X36.139 Y119.346 E52.26635
G1 X36.334 Y120.89 E52.37505
G1 X36.559 Y122.441 E52.48452
G1 X36.812 Y123.977 E52.59325
G1 X37.098 Y125.515 E52.70251
G1 X37.412 Y127.042 E52.8114
G1 X37.756 Y128.566 E52.92052
G1 X38.129 Y130.084 E53.0297
G1 X38.529 Y131.591 E53.13861
G1 X38.955 Y133.082 E53.24691
G1 X39.417 Y134.588 E53.35694
G1 X39.904 Y136.071 E53.46596
G1 X40.42 Y137.543 E53.57491
G1 X40.968 Y139.008 E53.68416
G1 X41.541 Y140.46 E53.79319
G1 X42.126 Y141.863 E53.89936
G1 X42.769 Y143.33 E54.01124
G1 X43.416 Y144.728 E54.11883
G1 X43.965 Y145.857 E54.20652
G1 X44.553 Y147.02 E54.29754
G1 X47.97 Y147.02 E54.5362
G1 X47.97 Y136.98 E55.23746
G1 X43.933 Y136.98 E55.51943
G1 X43.44 Y136.838 E55.55526
G1 X43.227 Y136.664 E55.57448
G1 X43.079 Y136.443 E55.59305
G1 X42.97 Y135.996 E55.62519
G1 X42.97 Y84.002 E59.25678
G1 X43.041 Y83.641 E59.28247
G1 X43.264 Y83.298 E59.31105
G1 X43.513 Y83.125 E59.33223
G0 F3600 X47.77 Y73.791
G1 F900 X47.157 Y73.179 E59.39273
G0 F3600 X46.591 Y73.179
G1 F900 X47.77 Y74.357 E59.50914
G0 F3600 X47.77 Y74.922
G1 F900 X46.026 Y73.179 E59.68136
G0 F3600 X45.46 Y73.179
G1 F900 X47.77 Y75.488 E59.90948
G0 F3600 X47.77 Y76.054
G1 F900 X44.894 Y73.179 E60.19352
G0 F3600 X44.555 Y73.405
G1 F900 X47.77 Y76.619 E60.51104
G0 F3600 X47.77 Y77.185
G1 F900 X44.364 Y73.78 E60.84743
G0 F3600 X44.177 Y74.159
G1 F900 X47.77 Y77.751 E61.20228
G0 F3600 X47.77 Y78.317
G1 F900 X43.992 Y74.539 E61.57547
G0 F3600 X43.807 Y74.92
G1 F900 X47.77 Y78.882 E61.96687
G0 F3600 X47.77 Y79.448
G1 F900 X43.622 Y75.3 E62.3766
G0 F3600 X43.443 Y75.687
G1 F900 X47.77 Y80.014 E62.80401
G0 F3600 X47.77 Y80.579
G1 F900 X43.265 Y76.074 E63.249
G0 F3600 X43.086 Y76.461
G1 F900 X47.77 Y81.145 E63.71168
G0 F3600 X47.77 Y81.711
G1 F900 X42.909 Y76.85 E64.19184
G0 F3600 X42.736 Y77.243
G1 F900 X47.77 Y82.276 E64.68903
G0 F3600 X47.746 Y82.819
G1 F900 X42.564 Y77.636 E65.20095
G0 F3600 X42.391 Y78.029
G1 F900 X47.18 Y82.819 E65.67404
G0 F3600 X46.615 Y82.819
G1 F900 X42.222 Y78.426 E66.10797
G0 F3600 X42.055 Y78.825
G1 F900 X46.049 Y82.819 E66.50249
G0 F3600 X45.483 Y82.819
G1 F900 X41.889 Y79.224 E66.85755
G0 F3600 X41.723 Y79.624
G1 F900 X44.918 Y82.819 E67.17314
G0 F3600 X44.352 Y82.819
G1 F900 X41.563 Y80.03 E67.44863
G0 F3600 X41.403 Y80.435
G1 F900 X43.817 Y82.849 E67.68708
G0 F3600 X43.369 Y82.967
G1 F900 X41.242 Y80.84 E67.89718
G0 F3600 X41.086 Y81.25
G1 F900 X43.066 Y83.23 E68.09276
G0 F3600 X42.863 Y83.592
G1 F900 X40.932 Y81.661 E68.2835
G0 F3600 X40.778 Y82.073
G1 F900 X42.77 Y84.065 E68.48026
G0 F3600 X42.77 Y84.63
G1 F900 X40.625 Y82.486 E68.69209
G0 F3600 X40.478 Y82.904
G1 F900 X42.77 Y85.196 E68.91849
G0 F3600 X42.77 Y85.762
G1 F900 X40.331 Y83.323 E69.15941
G0 F3600 X40.184 Y83.741
G1 F900 X42.77 Y86.327 E69.41485
G0 F3600 X42.77 Y86.893
G1 F900 X40.039 Y84.163 E69.68456
G0 F3600 X39.899 Y84.589
G1 F900 X42.77 Y87.459 E69.9681
G0 F3600 X42.77 Y88.024
G1 F900 X39.759 Y85.014 E70.26547
G0 F3600 X39.619 Y85.44
G1 F900 X42.77 Y88.59 E70.57667
G0 F3600 X42.77 Y89.156
G1 F900 X39.486 Y85.873 E70.90101
G0 F3600 X39.353 Y86.305
G1 F900 X42.77 Y89.721 E71.23848
G0 F3600 X42.77 Y90.287
G1 F900 X39.22 Y86.737 E71.58914
G0 F3600 X39.09 Y87.174
G1 F900 X42.77 Y90.853 E71.95259
G0 F3600 X42.77 Y91.419
G1 F900 X38.965 Y87.614 E72.32844
G0 F3600 X38.838 Y88.053
G1 F900 X42.77 Y91.984 E72.71678
G0 F3600 X42.77 Y92.55
G1 F900 X38.713 Y88.493 E73.11752
G0 F3600 X38.594 Y88.94
G1 F900 X42.77 Y93.116 E73.53002
G0 F3600 X42.77 Y93.681
G1 F900 X38.475 Y89.386 E73.95427
G0 F3600 X38.356 Y89.833
G1 F900 X42.77 Y94.247 E74.39027
G0 F3600 X42.77 Y94.813
G1 F900 X38.243 Y90.286 E74.83744
G0 F3600 X38.131 Y90.74
G1 F900 X42.77 Y95.378 E75.29562
G0 F3600 X42.77 Y95.944
G1 F900 X38.019 Y91.194 E75.76486
G0 F3600 X37.911 Y91.651
G1 F900 X42.77 Y96.51 E76.24482
G0 F3600 X42.77 Y97.075
G1 F900 X37.807 Y92.113 E76.73501
G0 F3600 X37.702 Y92.574
G1 F900 X42.77 Y97.641 E77.23556
G0 F3600 X42.77 Y98.207
G1 F900 X37.6 Y93.037 E77.74624
G0 F3600 X37.503 Y93.506
