;FLAVOR:Marlin
;TIME:2524
;Filament used: 3.61779m
;Layer height: 0.3
;MINX:34.791
;MINY:105.06
;MINZ:0.3
;MAXX:121.769
;MAXY:154.202
;MAXZ:12.9
;Generated with Cura_SteamEngine 5.0.0
M140 S50
M105
M190 S50
M104 S215
M105
M109 S215
M82 ;absolute extrusion mode
G28 ; Auto home
G1 Z15 F300 ;Move up slightly
M107 ;Off fans
G90 ;Switch to absolute positioning
M82 ;Extruder absolute mode
G92 E0 ;Set position of extruder to 0
G0 X10 Y20 F1500 ;Move to X10 Y20 at 1500mms
G1 Z0.8 ;Move Z to 0.8
G1 F300 X180 E40 ;Extrude a line of filament
G1 F1200 Z2 ;Raise Z
G92 E0 ;Set extruder position to zero
G28 ;Auto home
G92 E0
G92 E0
G1 F3600 E-1.8
;LAYER_COUNT:43
;LAYER:0
M107
G0 X37.139 Y105.916 Z0.3
G0 X34.791 Y109.053
;TYPE:SKIRT
G1 F3600 E0
G1 F900 X34.823 Y108.548 E0.03534
G1 X34.934 Y108.055 E0.07064
G1 X35.121 Y107.585 E0.10597
G1 X35.379 Y107.151 E0.14124
G1 X35.703 Y106.763 E0.17654
G1 X36.084 Y106.43 E0.21188
G1 X36.513 Y106.162 E0.24722
G1 X37.139 Y105.916 E0.29419
G1 X38.1 Y105.651 E0.36382
G1 X39.408 Y105.315 E0.45815
G1 X40.131 Y105.14 E0.5101
G1 X40.63 Y105.06 E0.5454
G1 X41.136 Y105.06 E0.58074
G1 X41.635 Y105.139 E0.61603
G1 X41.955 Y105.234 E0.63935
G1 X44.444 Y106.118 E0.82383
G1 X47.009 Y106.951 E1.0122
G1 X49.665 Y107.732 E1.20557
G1 X52.29 Y108.424 E1.39518
G1 X54.94 Y109.042 E1.58523
G1 X57.688 Y109.601 E1.7811
G1 X60.319 Y110.061 E1.96766
G1 X63.073 Y110.461 E2.16203
G1 X65.742 Y110.773 E2.34972
G1 X68.52 Y111.017 E2.5445
G1 X71.234 Y111.18 E2.7344
G1 X73.95 Y111.264 E2.9242
G1 X76.703 Y111.273 E3.11649
G1 X79.457 Y111.203 E3.3089
G1 X82.172 Y111.058 E3.49881
G1 X84.877 Y110.836 E3.68838
G1 X87.655 Y110.529 E3.88359
G1 X90.302 Y110.16 E4.07026
G1 X93.08 Y109.692 E4.26703
G1 X94.168 Y109.49 E4.34432
G1 X94.982 Y109.428 E4.40134
G1 X117.903 Y109.427 E6.00229
G1 X118.601 Y109.436 E6.05104
G1 X119.105 Y109.483 E6.0864
G1 X119.595 Y109.608 E6.12172
G1 X120.059 Y109.809 E6.15704
G1 X120.485 Y110.08 E6.1923
G1 X120.864 Y110.415 E6.22763
G1 X121.185 Y110.806 E6.26297
G1 X121.44 Y111.242 E6.29825
G1 X121.624 Y111.713 E6.33357
G1 X121.731 Y112.207 E6.36887
G1 X121.768 Y112.867 E6.41504
G1 X121.769 Y145.931 E8.72444
G1 X121.76 Y146.658 E8.77522
G1 X121.714 Y147.161 E8.8105
G1 X121.589 Y147.651 E8.84582
G1 X121.388 Y148.115 E8.88114
G1 X121.117 Y148.542 E8.91646
G1 X120.782 Y148.921 E8.95179
G1 X120.392 Y149.242 E8.98707
G1 X119.956 Y149.498 E9.02239
G1 X119.485 Y149.681 E9.05768
G1 X118.991 Y149.789 E9.093
G1 X118.329 Y149.826 E9.13931
G1 X95.403 Y149.827 E10.74061
G1 X94.704 Y149.817 E10.78944
G1 X94.167 Y149.763 E10.82713
G1 X93.363 Y149.614 E10.88424
G1 X90.621 Y149.145 E11.07854
G1 X87.925 Y148.761 E11.26875
G1 X85.189 Y148.45 E11.46108
G1 X82.451 Y148.218 E11.653
G1 X79.732 Y148.064 E11.84322
G1 X76.98 Y147.986 E12.03552
G1 X74.263 Y147.986 E12.22529
G1 X71.51 Y148.064 E12.41765
G1 X68.763 Y148.22 E12.60983
G1 X66.054 Y148.45 E12.79972
G1 X63.343 Y148.759 E12.9903
G1 X60.633 Y149.144 E13.18149
G1 X57.937 Y149.606 E13.37254
G1 X55.236 Y150.148 E13.56495
G1 X52.601 Y150.754 E13.7538
G1 X49.904 Y151.457 E13.94847
G1 X47.291 Y152.216 E14.13852
G1 X44.71 Y153.046 E14.32789
G1 X41.949 Y154.021 E14.53241
G1 X41.461 Y154.151 E14.56768
G1 X40.958 Y154.202 E14.60299
G1 X40.453 Y154.174 E14.63832
G1 X39.611 Y153.991 E14.6985
G1 X37.859 Y153.541 E14.82484
G1 X37.157 Y153.35 E14.87566
G1 X36.681 Y153.179 E14.91099
G1 X36.238 Y152.935 E14.94631
G1 X35.839 Y152.625 E14.9816
G1 X35.494 Y152.255 E15.01694
G1 X35.211 Y151.836 E15.05225
G1 X34.998 Y151.378 E15.08753
G1 X34.86 Y150.892 E15.12282
G1 X34.8 Y150.39 E15.15813
G1 X34.843 Y149.72 E15.20503
G1 X35.003 Y148.796 E15.27052
G1 X35.194 Y147.791 E15.34198
G1 X35.68 Y145.026 E15.53806
G1 X36.074 Y142.344 E15.7274
G1 X36.396 Y139.614 E15.9194
G1 X36.639 Y136.9 E16.10972
G1 X36.807 Y134.154 E16.30188
G1 X36.896 Y131.437 E16.49175
G1 X36.908 Y128.684 E16.68404
G1 X36.843 Y125.965 E16.87401
G1 X36.701 Y123.221 E17.06592
G1 X36.478 Y120.464 E17.25912
G1 X36.185 Y117.778 E17.44784
G1 X35.809 Y115.053 E17.63997
G1 X35.203 Y111.517 E17.89055
G1 X34.957 Y110.219 E17.98282
G1 X34.84 Y109.556 E18.02985
G1 X34.791 Y109.053 E18.06515
G1 F3600 E16.26515
;MESH:WS mini Solar mounter.stl
G0 X37.401 Y109.5
G0 X38.47 Y109.296
G0 X42.386 Y120.255
G1 F3600 E18.06515
G0 X42.888 Y120.224
;TYPE:WALL-INNER
G1 F900 X42.673 Y120.157 E18.08088
G1 X42.463 Y119.969 E18.10056
G1 X42.357 Y119.665 E18.12305
G1 X42.311 Y118.923 E18.17498
G1 X40.413 Y108.98 E18.882
G1 X38.675 Y109.427 E19.00734
G1 X40.528 Y119.149 E19.69861
G1 X40.569 Y119.776 E19.7425
G1 X40.672 Y121.441 E19.85901
G1 X40.726 Y122.276 E19.91746
G1 X40.829 Y123.942 E20.03404
G1 X41.185 Y129.588 E20.42918
G1 X41.186 Y129.664 E20.43449
G1 X40.883 Y134.477 E20.77132
G1 X40.829 Y135.31 E20.82963
G1 X40.532 Y140.066 E21.16246
G1 X40.522 Y140.14 E21.16768
G1 X38.676 Y149.826 E21.85639
G1 X40.413 Y150.272 E21.98164
G1 X42.3 Y140.383 E22.68482
G1 X42.359 Y139.588 E22.7405
G1 X42.464 Y139.285 E22.7629
G1 X42.674 Y139.098 E22.78254
G1 X42.958 Y139.026 E22.803
G1 X71.95 Y139.027 E24.82798
G1 X94.742 Y139.026 E26.41992
G1 X95.077 Y139.127 E26.44436
G1 X95.25 Y139.306 E26.46175
G1 X95.342 Y139.627 E26.48507
G1 X95.342 Y146.027 E26.93209
G1 X117.969 Y146.027 E28.5125
G1 X117.969 Y117.677 E30.49264
G1 X117.969 Y113.227 E30.80346
G1 X95.342 Y113.227 E32.38387
G1 X95.342 Y119.627 E32.83088
G1 X95.25 Y119.948 E32.85421
G1 X94.986 Y120.176 E32.87857
G1 X94.742 Y120.228 E32.896
G1 X43.271 Y120.227 E36.49105
G1 X42.888 Y120.224 E36.51781
G0 F3600 X42.386 Y120.255
G0 X42.975 Y129.625
G0 X42.984 Y129.625
G1 F900 X42.671 Y124.665 E36.86493
G1 X42.738 Y124.349 E36.8875
G1 X42.924 Y124.137 E36.90719
G1 X43.195 Y124.031 E36.92752
G1 X43.271 Y124.027 E36.93283
G1 X68.95 Y124.027 E38.72642
G1 X69.127 Y124.053 E38.73891
G1 X69.347 Y124.176 E38.75652
G1 X69.512 Y124.414 E38.77674
G1 X69.55 Y124.627 E38.79186
G1 X69.549 Y134.68 E39.49402
G1 X69.512 Y134.84 E39.50549
G1 X69.347 Y135.078 E39.52572
G1 X69.054 Y135.219 E39.54843
G1 X68.95 Y135.227 E39.55572
G1 X43.271 Y135.227 E41.3493
G1 X43.128 Y135.211 E41.35935
G1 X42.923 Y135.117 E41.3751
G1 X42.738 Y134.905 E41.39475
G1 X42.671 Y134.589 E41.41732
G1 X42.984 Y129.625 E41.76472
G0 F3600 X43.385 Y129.625
;TYPE:WALL-OUTER
G1 F900 X43.071 Y124.64 E42.1136
G1 X43.093 Y124.534 E42.12116
G1 X43.245 Y124.428 E42.1341
G1 X68.95 Y124.427 E43.9295
G1 X69.083 Y124.476 E43.9394
G1 X69.15 Y124.627 E43.95094
G1 X69.15 Y134.645 E44.65066
G1 X69.138 Y134.698 E44.65445
G1 X69.061 Y134.794 E44.66305
G1 X68.95 Y134.827 E44.67114
G1 X43.246 Y134.826 E46.46647
G1 X43.155 Y134.791 E46.47328
G1 X43.072 Y134.649 E46.48476
G1 X43.071 Y134.614 E46.48721
G1 X43.385 Y129.625 E46.83636
G0 F3600 X43.373 Y129.426
G0 X42.964 Y129.451
G0 X42.575 Y137.13
G0 X43.649 Y137.198
G0 X69.488 Y135.165
G0 X71.34 Y124.627
G0 X71.35 Y124.627
;TYPE:WALL-INNER
G1 F900 X71.388 Y124.414 E46.85147
G1 X71.553 Y124.176 E46.8717
G1 X71.846 Y124.035 E46.89441
G1 X71.95 Y124.027 E46.9017
G1 X94.742 Y124.027 E48.49363
G1 X95.103 Y124.146 E48.52018
G1 F871.7 X95.355 Y124.627 E48.55934
G1 F843.1 X95.355 Y134.627 E49.30495
G1 F837.2 X95.35 Y134.733 E49.31292
G1 F865.4 X95.103 Y135.108 E49.34554
G1 F900 X94.742 Y135.227 E49.37209
G1 X71.95 Y135.227 E50.96402
G1 X71.773 Y135.201 E50.97652
G1 X71.553 Y135.078 E50.99413
G1 X71.388 Y134.84 E51.01435
G1 X71.35 Y134.627 E51.02946
G1 X71.35 Y124.627 E51.72793
G0 F3600 X71.75 Y124.627
;TYPE:WALL-OUTER
G1 F900 X71.817 Y124.476 E51.73947
G1 X71.95 Y124.427 E51.74937
G1 X94.742 Y124.427 E53.3413
G1 X94.863 Y124.466 E53.35018
G1 X94.942 Y124.627 E53.36271
G1 X94.942 Y134.627 E54.06117
G1 X94.863 Y134.788 E54.0737
G1 X94.742 Y134.827 E54.08258
G1 X71.95 Y134.827 E55.67451
G1 X71.817 Y134.778 E55.68441
G1 X71.75 Y134.627 E55.69595
G1 X71.75 Y124.627 E56.39441
G0 F3600 X71.817 Y124.476
G0 X71.85 Y124.464
G0 X71.85 Y124.017
G0 X95.28 Y120.165
G0 X94.942 Y119.627
G1 F900 X94.912 Y119.734 E56.40218
G1 X94.824 Y119.81 E56.4103
G1 X93.947 Y119.828 E56.47157
G1 X43.271 Y119.827 E60.0111
G1 X42.862 Y119.804 E60.03971
G1 X42.762 Y119.674 E60.05116
G1 X42.72 Y119.051 E60.09478
G1 X42.677 Y118.705 E60.11913
G1 X40.726 Y108.487 E60.84571
G1 X38.212 Y109.133 E61.02701
G1 X40.132 Y119.213 E61.74372
G1 X40.786 Y129.639 E62.47337
G1 X40.131 Y140.053 E63.20218
G1 X38.441 Y148.925 E63.833
G1 X38.212 Y150.12 E63.91799
G1 X40.726 Y150.766 E64.09929
G1 X42.693 Y140.458 E64.83225
G1 X42.758 Y139.614 E64.89138
G1 X42.863 Y139.45 E64.90498
G1 X43.271 Y139.427 E64.93352
G1 X94.742 Y139.426 E68.52858
G1 X94.854 Y139.46 E68.53675
G1 X94.936 Y139.577 E68.54673
G1 X94.942 Y139.627 E68.55025
G1 X94.942 Y146.427 E69.02521
G1 X118.369 Y146.427 E70.66149
G1 X118.369 Y117.677 E72.66957
G1 X118.369 Y112.827 E73.00833
G1 X94.942 Y112.827 E74.64462
G1 X94.942 Y119.627 E75.11957
G0 F3600 X94.912 Y119.734
G0 X94.845 Y119.792
G0 X94.845 Y120.237
G0 X95.786 Y123.8
G0 X95.796 Y123.8
;TYPE:WALL-INNER
G1 F900 X95.796 Y122.627 E75.2015
G1 X95.888 Y122.306 E75.22483
G1 X96.152 Y122.078 E75.24919
G1 X96.396 Y122.027 E75.2666
G1 X112.515 Y122.027 E76.39245
G1 X112.735 Y122.068 E76.40808
G1 X112.944 Y122.206 E76.42558
G1 X113.094 Y122.466 E76.44654
G1 X113.115 Y122.627 E76.45788
G1 X113.115 Y136.627 E77.43573
G1 X113.033 Y136.932 E77.45779
G1 X112.841 Y137.132 E77.47716
G1 X112.619 Y137.219 E77.49381
G1 X112.515 Y137.227 E77.50109
G1 X96.396 Y137.227 E78.62695
G1 X96.061 Y137.126 E78.65139
G1 X95.888 Y136.948 E78.66872
G1 X95.796 Y136.627 E78.69205
G1 X95.796 Y135.454 E78.77398
G1 F865.4 X95.78 Y134.77 E78.82368
G1 F837.2 X95.783 Y134.627 E78.83441
G1 F843.1 X95.783 Y124.627 E79.58002
G1 F871.7 X95.796 Y123.8 E79.63967
G0 F3600 X95.786 Y123.8
G0 X95.786 Y122.627
G0 X96.196 Y122.627
;TYPE:WALL-OUTER
G1 F900 X96.226 Y122.52 E79.64743
G1 X96.314 Y122.444 E79.65555
G1 X97.069 Y122.427 E79.7083
G1 X112.515 Y122.427 E80.78715
G1 X112.658 Y122.486 E80.79795
G1 X112.715 Y122.627 E80.80857
G1 X112.715 Y136.627 E81.78642
G1 X112.658 Y136.768 E81.79705
G1 X112.55 Y136.825 E81.80558
G1 X112.515 Y136.827 E81.80802
G1 X96.396 Y136.827 E82.93388
G1 X96.284 Y136.794 E82.94203
G1 X96.2 Y136.668 E82.95261
G1 X96.196 Y135.454 E83.0374
G1 X96.196 Y122.627 E83.93332
G0 F3600 X96.226 Y122.52
G0 X96.293 Y122.462
G0 X96.293 Y122.017
G0 X95.41 Y123.953
;TYPE:SKIN
G1 F900 X95.416 Y123.214 E83.98494
G1 X95.416 Y122.609 E84.0272
G1 X95.446 Y122.391 E84.04257
G1 X95.62 Y122.045 E84.06962
G1 X95.969 Y121.75 E84.10153
G1 X96.403 Y121.647 E84.13269
G1 X112.532 Y121.647 E85.25924
G1 X112.75 Y121.677 E85.27461
G1 X113.082 Y121.832 E85.3002
G1 X113.375 Y122.153 E85.33056
G1 X113.466 Y122.388 E85.34816
G1 X113.495 Y122.627 E85.36498
G1 X113.495 Y136.641 E86.3438
G1 X113.473 Y136.831 E86.35716
G1 X113.349 Y137.146 E86.38081
G1 X113.186 Y137.339 E86.39845
G1 X112.835 Y137.551 E86.42709
G1 X112.511 Y137.607 E86.45006
G1 X96.403 Y137.607 E87.57514
G1 X95.904 Y137.476 E87.61117
G1 X95.551 Y137.119 E87.64624
G1 X95.432 Y136.805 E87.6697
G1 X95.416 Y136.284 E87.7061
G1 X95.416 Y135.458 E87.7638
G1 X95.409 Y135.314 E87.77387
G1 X95.274 Y135.44 E87.78676
G1 X94.739 Y135.607 E87.82591
G1 X71.954 Y135.607 E89.41736
G1 X71.623 Y135.547 E89.44085
G1 X71.274 Y135.33 E89.46956
G1 X71.055 Y135.017 E89.49624
G1 X70.972 Y134.699 E89.51919
G1 X70.97 Y124.633 E90.22227
G1 X71.057 Y124.229 E90.25113
G1 X71.337 Y123.866 E90.28315
G1 X71.696 Y123.681 E90.31136
G1 X71.954 Y123.647 E90.32954
G1 X94.739 Y123.647 E91.92098
G1 X95.273 Y123.813 E91.96004
G1 X95.386 Y123.907 E91.97031
G1 X95.41 Y123.953 E91.97393
G0 F3600 X71.412 Y124.089
G0 X69.488 Y135.165
G0 X43.649 Y137.198
G0 X42.575 Y137.13
G0 X42.602 Y129.625
G1 F900 X42.292 Y124.698 E92.31875
G1 X42.385 Y124.221 E92.35269
G1 X42.669 Y123.858 E92.38488
G1 X43.058 Y123.67 E92.41506
G1 X43.243 Y123.649 E92.42806
G1 X68.946 Y123.647 E94.22332
G1 X69.277 Y123.707 E94.24682
G1 X69.629 Y123.925 E94.27574
G1 X69.876 Y124.31 E94.30769
G1 X69.93 Y124.633 E94.33056
G1 X69.929 Y134.653 E95.03042
G1 X69.845 Y135.017 E95.05651
G1 X69.559 Y135.391 E95.0894
G1 X69.204 Y135.573 E95.11726
G1 X68.975 Y135.606 E95.13342
G1 X43.258 Y135.607 E96.92966
G1 X43.104 Y135.588 E96.9405
G1 X42.669 Y135.396 E96.97371
G1 X42.382 Y135.028 E97.0063
G1 X42.292 Y134.565 E97.03925
G1 X42.602 Y129.625 E97.38497
G0 F3600 X42.132 Y120.154
G1 F900 X41.978 Y119.688 E97.41925
G1 X41.933 Y118.969 E97.46956
G1 X40.114 Y109.451 E98.14639
G1 X39.118 Y109.707 E98.21822
G1 X40.896 Y119.041 E98.88189
G1 X40.942 Y119.752 E98.93165
G1 X41.565 Y129.562 E99.61823
G1 X41.565 Y129.592 E99.62032
G1 X40.913 Y140.091 E100.35505
G1 X39.208 Y149.073 E100.99361
G1 X39.117 Y149.546 E101.02725
G1 X40.113 Y149.802 E101.09908
G1 X41.932 Y140.278 E101.77632
G1 X41.979 Y139.568 E101.82602
G1 X42.13 Y139.115 E101.85937
G1 X42.453 Y138.79 E101.89138
G1 X42.87 Y138.652 E101.92206
G1 X94.735 Y138.645 E105.54464
G1 X95.232 Y138.776 E105.58053
G1 X95.584 Y139.13 E105.6154
G1 X95.697 Y139.405 E105.63617
G1 X95.722 Y139.625 E105.65163
G1 X95.722 Y145.647 E106.07225
G1 X117.589 Y145.647 E107.59958
G1 X117.589 Y117.677 E109.55318
G1 X117.589 Y113.607 E109.83745
G1 X95.722 Y113.607 E111.36478
G1 X95.721 Y119.648 E111.78672
G1 X95.681 Y119.905 E111.80489
G1 X95.517 Y120.213 E111.82926
G1 X95.232 Y120.472 E111.85616
G1 X94.735 Y120.609 E111.89217
G1 X42.97 Y120.608 E115.50776
G1 X42.455 Y120.465 E115.54509
G1 X42.132 Y120.154 E115.57641
G0 F3600 X40.478 Y140.098
G0 X39.397 Y149.14
G1 F900 X39.761 Y149.504 E115.61237
G0 F3600 X40.023 Y149.2
G1 F900 X39.486 Y148.664 E115.66536
G0 F3600 X39.577 Y148.189
G1 F900 X40.114 Y148.725 E115.71835
G0 F3600 X40.205 Y148.251
G1 F900 X39.667 Y147.713 E115.7715
G0 F3600 X39.757 Y147.238
G1 F900 X40.295 Y147.776 E115.82464
G0 F3600 X40.386 Y147.3
G1 F900 X39.848 Y146.762 E115.87778
G0 F3600 X39.938 Y146.286
G1 F900 X40.476 Y146.825 E115.93097
G0 F3600 X40.568 Y146.351
G1 F900 X40.028 Y145.811 E115.98431
G0 F3600 X40.119 Y145.336
G1 F900 X40.658 Y145.876 E116.0376
G0 F3600 X40.749 Y145.4
G1 F900 X40.208 Y144.86 E116.09099
G0 F3600 X40.299 Y144.385
G1 F900 X40.84 Y144.926 E116.14443
G0 F3600 X40.93 Y144.451
G1 F900 X40.389 Y143.91 E116.19787
G0 F3600 X40.479 Y143.434
G1 F900 X41.021 Y143.976 E116.25141
G0 F3600 X41.111 Y143.5
G1 F900 X40.57 Y142.959 E116.30485
G0 F3600 X40.66 Y142.483
G1 F900 X41.203 Y143.026 E116.35848
G0 F3600 X41.293 Y142.551
G1 F900 X40.75 Y142.008 E116.41212
G0 F3600 X40.841 Y141.533
G1 F900 X41.384 Y142.076 E116.46575
G0 F3600 X41.475 Y141.601
G1 F900 X40.93 Y141.057 E116.51954
G0 F3600 X41.021 Y140.582
G1 F900 X41.565 Y141.126 E116.57327
G0 F3600 X41.656 Y140.651
G1 F900 X41.111 Y140.106 E116.62711
G0 F3600 X41.145 Y139.574
G1 F900 X41.736 Y140.165 E116.68548
G0 F3600 X41.773 Y139.636
G1 F900 X41.177 Y139.041 E116.74431
G0 F3600 X41.21 Y138.508
G1 F900 X41.895 Y139.193 E116.81197
G0 F3600 X42.102 Y138.834
G1 F900 X41.243 Y137.975 E116.89682
G0 F3600 X41.276 Y137.443
G1 F900 X42.417 Y138.584 E117.00952
G0 F3600 X42.851 Y138.452
G1 F900 X41.309 Y136.91 E117.16184
G0 F3600 X41.342 Y136.377
G1 F900 X43.417 Y138.452 E117.3668
G0 F3600 X43.982 Y138.452
G1 F900 X41.375 Y135.845 E117.62432
G0 F3600 X41.408 Y135.311
G1 F900 X44.548 Y138.452 E117.93453
G0 F3600 X45.114 Y138.452
G1 F900 X41.441 Y134.779 E118.29734
G0 F3600 X41.474 Y134.247
G1 F900 X42.161 Y134.934 E118.3652
G0 F3600 X42.107 Y134.314
G1 F900 X41.507 Y133.713 E118.42451
G0 F3600 X41.54 Y133.181
G1 F900 X42.14 Y133.781 E118.48378
G0 F3600 X42.173 Y133.249
G1 F900 X41.572 Y132.648 E118.54315
G0 F3600 X41.606 Y132.115
