;FLAVOR:Marlin
;TIME:2426
;Filament used: 3.79704m
;Layer height: 0.3
;MINX:69.371
;MINY:68.4
;MINZ:0.3
;MAXX:120.761
;MAXY:151.6
;MAXZ:9.9
;Generated with Cura_SteamEngine 5.0.0
M140 S50
M105
M190 S50
M104 S215
M105
M109 S215
M82 ;absolute extrusion mode
G28 ; Auto home
G1 Z15 F300 ;Move up slightly
M107 ;Off fans
G90 ;Switch to absolute positioning
M82 ;Extruder absolute mode
G92 E0 ;Set position of extruder to 0
G0 X10 Y20 F1500 ;Move to X10 Y20 at 1500mms
G1 Z0.8 ;Move Z to 0.8
G1 F300 X180 E40 ;Extrude a line of filament
G1 F1200 Z2 ;Raise Z
G92 E0 ;Set extruder position to zero
G28 ;Auto home
G92 E0
G92 E0
G1 F3600 E-1.8
;LAYER_COUNT:33
;LAYER:0
M107
G0 X70.368 Y69.531 Z0.3
G0 X69.371 Y72.625
;TYPE:SKIRT
G1 F3600 E0
G1 F900 X69.38 Y71.96 E0.04645
G1 X69.428 Y71.426 E0.0839
G1 X69.554 Y70.905 E0.12134
G1 X69.756 Y70.408 E0.15881
G1 X70.029 Y69.947 E0.19623
G1 X70.368 Y69.531 E0.23371
G1 X70.765 Y69.171 E0.27115
G1 X71.212 Y68.873 E0.30867
G1 X71.697 Y68.645 E0.3461
G1 X72.211 Y68.492 E0.38356
G1 X72.879 Y68.41 E0.43057
G1 X73.301 Y68.4 E0.46005
G1 X77.264 Y68.4 E0.73685
G1 X78.068 Y68.414 E0.79302
G1 X78.407 Y68.436 E0.81674
G1 X80.814 Y68.707 E0.98593
G1 X83.553 Y68.94 E1.17793
G1 X86.249 Y69.094 E1.36654
G1 X89.013 Y69.173 E1.55967
G1 X91.708 Y69.173 E1.74791
G1 X94.475 Y69.096 E1.94125
G1 X97.164 Y68.944 E2.12936
G1 X99.902 Y68.712 E2.32129
G1 X102.452 Y68.431 E2.50047
G1 X103.062 Y68.401 E2.54313
G1 X107.178 Y68.4 E2.83062
G1 X107.879 Y68.41 E2.87959
G1 X108.414 Y68.458 E2.9171
G1 X108.935 Y68.584 E2.95454
G1 X109.431 Y68.787 E2.99198
G1 X109.892 Y69.061 E3.02943
G1 X110.308 Y69.4 E3.06692
G1 X110.668 Y69.797 E3.10435
G1 X111.006 Y70.319 E3.14778
G1 X111.319 Y70.91 E3.19449
G1 X111.996 Y72.256 E3.29973
G1 X112.748 Y73.829 E3.42151
G1 X113.391 Y75.242 E3.52994
G1 X114.065 Y76.801 E3.64857
G1 X114.672 Y78.28 E3.76023
G1 X115.277 Y79.843 E3.8773
G1 X115.845 Y81.399 E3.99299
G1 X116.379 Y82.953 E4.10776
G1 X116.863 Y84.453 E4.21785
G1 X117.36 Y86.099 E4.33794
G1 X117.79 Y87.632 E4.44915
G1 X118.223 Y89.299 E4.56945
G1 X118.601 Y90.88 E4.68299
G1 X118.963 Y92.541 E4.80173
G1 X119.268 Y94.071 E4.91069
G1 X119.565 Y95.726 E5.02814
G1 X119.826 Y97.367 E5.14419
G1 X120.056 Y99.027 E5.26125
G1 X120.249 Y100.632 E5.37416
G1 X120.415 Y102.293 E5.49075
G1 X120.546 Y103.909 E5.60399
G1 X120.648 Y105.559 E5.71946
G1 X120.717 Y107.206 E5.8346
G1 X120.756 Y108.908 E5.95351
G1 X120.761 Y110.582 E6.07043
G1 X120.736 Y112.162 E6.1808
G1 X120.677 Y113.839 E6.298
G1 X120.591 Y115.413 E6.40811
G1 X120.468 Y117.105 E6.5266
G1 X120.313 Y118.762 E6.64284
G1 X120.128 Y120.404 E6.75825
G1 X119.911 Y122.046 E6.87394
G1 X119.671 Y123.631 E6.9859
G1 X119.395 Y125.246 E7.10034
G1 X119.086 Y126.861 E7.21519
G1 X118.719 Y128.598 E7.33919
G1 X118.368 Y130.11 E7.44761
G1 X117.96 Y131.727 E7.56409
G1 X117.545 Y133.254 E7.67461
G1 X117.062 Y134.901 E7.79449
G1 X116.585 Y136.424 E7.90596
G1 X116.035 Y138.059 E8.02645
G1 X115.492 Y139.579 E8.13919
G1 X114.894 Y141.155 E8.25692
G1 X114.268 Y142.714 E8.37427
G1 X113.634 Y144.206 E8.48749
G1 X112.941 Y145.755 E8.60602
G1 X112.267 Y147.187 E8.71657
G1 X111.556 Y148.627 E8.82874
G1 X111.029 Y149.645 E8.9088
G1 X110.748 Y150.102 E8.94627
G1 X110.402 Y150.511 E8.98369
G1 X109.999 Y150.865 E9.02116
G1 X109.547 Y151.155 E9.05867
G1 X109.058 Y151.375 E9.09612
G1 X108.542 Y151.519 E9.13354
G1 X107.891 Y151.59 E9.17928
G1 X107.278 Y151.6 E9.2221
G1 X103.478 Y151.599 E9.48751
G1 X102.737 Y151.586 E9.53928
G1 X102.399 Y151.565 E9.56293
G1 X99.876 Y151.282 E9.74026
G1 X97.17 Y151.053 E9.92994
G1 X94.485 Y150.902 E10.11777
G1 X91.715 Y150.825 E10.31132
G1 X89.019 Y150.825 E10.49963
G1 X86.256 Y150.904 E10.69269
G1 X83.565 Y151.058 E10.88095
G1 X80.851 Y151.29 E11.07121
G1 X78.363 Y151.569 E11.24608
G1 X77.45 Y151.6 E11.30988
G1 X73.626 Y151.6 E11.57697
G1 X72.928 Y151.59 E11.62573
G1 X72.394 Y151.542 E11.66318
G1 X71.873 Y151.416 E11.70062
G1 X71.376 Y151.213 E11.73812
G1 X70.915 Y150.939 E11.77557
G1 X70.5 Y150.6 E11.813
G1 X70.14 Y150.202 E11.85049
G1 X69.843 Y149.756 E11.88791
G1 X69.615 Y149.27 E11.92541
G1 X69.463 Y148.756 E11.96284
G1 X69.381 Y148.087 E12.00992
G1 X69.371 Y147.657 E12.03996
G1 X69.372 Y136.637 E12.80967
G1 X69.386 Y135.912 E12.86032
G1 X69.489 Y135.123 E12.91589
G1 X69.632 Y134.544 E12.95755
G1 X70.049 Y132.937 E13.07351
G1 X70.669 Y130.239 E13.26687
G1 X71.208 Y127.545 E13.45876
G1 X71.661 Y124.895 E13.64654
G1 X72.043 Y122.203 E13.83645
G1 X72.351 Y119.482 E14.02772
G1 X72.58 Y116.764 E14.21823
G1 X72.732 Y114.072 E14.40656
G1 X72.809 Y111.305 E14.5999
G1 X72.807 Y108.611 E14.78806
G1 X72.728 Y105.845 E14.98133
G1 X72.574 Y103.155 E15.16953
G1 X72.342 Y100.436 E15.36013
G1 X72.031 Y97.716 E15.55135
G1 X71.646 Y95.017 E15.74177
G1 X71.187 Y92.349 E15.93086
G1 X70.651 Y89.678 E16.12114
G1 X70.022 Y86.956 E16.31627
G1 X69.492 Y84.877 E16.46613
G1 X69.381 Y84.09 E16.52164
G1 X69.371 Y83.67 E16.55098
G1 X69.371 Y72.625 E17.32244
G0 F3600 X69.771 Y72.631
G1 F900 X69.78 Y71.966 E17.36889
G1 X69.827 Y71.462 E17.40424
G1 X69.953 Y70.973 E17.43951
G1 X70.154 Y70.509 E17.47483
G1 X70.425 Y70.082 E17.51016
G1 X70.76 Y69.704 E17.54543
G1 X71.151 Y69.383 E17.58077
G1 X71.588 Y69.128 E17.61611
G1 X72.059 Y68.944 E17.65143
G1 X72.553 Y68.838 E17.68672
G1 X73.211 Y68.801 E17.73275
G1 X77.32 Y68.8 E18.01975
G1 X78.061 Y68.813 E18.07151
G1 X78.363 Y68.833 E18.09265
G1 X80.809 Y69.108 E18.26457
G1 X83.5 Y69.337 E18.45321
G1 X86.249 Y69.494 E18.64553
G1 X89.002 Y69.573 E18.83789
G1 X91.72 Y69.573 E19.02773
G1 X94.471 Y69.496 E19.21996
G1 X97.187 Y69.343 E19.40996
G1 X99.935 Y69.11 E19.60259
G1 X102.495 Y68.828 E19.78247
G1 X103.073 Y68.801 E19.82289
G1 X107.173 Y68.8 E20.10926
G1 X107.874 Y68.81 E20.15823
G1 X108.377 Y68.857 E20.19351
G1 X108.867 Y68.983 E20.22885
G1 X109.33 Y69.185 E20.26413
G1 X109.757 Y69.457 E20.29949
G1 X110.135 Y69.792 E20.33477
G1 X110.455 Y70.183 E20.37006
G1 X110.928 Y71.024 E20.43746
G1 X111.635 Y72.429 E20.54731
G1 X112.384 Y73.994 E20.6685
G1 X113.024 Y75.401 E20.77646
G1 X113.695 Y76.953 E20.89456
G1 X114.299 Y78.425 E21.00569
G1 X114.901 Y79.981 E21.12222
G1 X115.467 Y81.529 E21.23735
G1 X115.999 Y83.077 E21.35167
G1 X116.48 Y84.568 E21.4611
G1 X116.975 Y86.207 E21.58069
G1 X117.403 Y87.732 E21.69132
G1 X117.834 Y89.392 E21.81111
G1 X118.21 Y90.966 E21.92414
G1 X118.571 Y92.619 E22.04231
G1 X118.874 Y94.142 E22.15078
G1 X119.17 Y95.789 E22.26765
G1 X119.429 Y97.422 E22.38314
G1 X119.659 Y99.075 E22.49971
G1 X119.851 Y100.672 E22.61206
G1 X120.016 Y102.325 E22.72809
G1 X120.147 Y103.934 E22.84084
G1 X120.248 Y105.576 E22.95574
G1 X120.317 Y107.215 E23.07032
G1 X120.356 Y108.909 E23.18867
G1 X120.361 Y110.576 E23.30511
G1 X120.336 Y112.148 E23.41492
G1 X120.277 Y113.818 E23.53164
G1 X120.193 Y115.384 E23.64117
G1 X120.069 Y117.068 E23.75911
G1 X119.916 Y118.718 E23.87485
G1 X119.732 Y120.352 E23.9897
G1 X119.516 Y121.986 E24.10483
G1 X119.277 Y123.563 E24.21623
G1 X119.002 Y125.171 E24.33017
G1 X118.694 Y126.779 E24.44453
G1 X118.329 Y128.507 E24.56789
G1 X117.98 Y130.012 E24.67579
G1 X117.574 Y131.622 E24.79177
G1 X117.161 Y133.142 E24.90178
G1 X116.681 Y134.781 E25.02107
G1 X116.206 Y136.296 E25.13197
G1 X115.659 Y137.924 E25.25192
G1 X115.118 Y139.437 E25.36415
G1 X114.523 Y141.007 E25.48142
G1 X113.9 Y142.558 E25.59817
G1 X113.269 Y144.042 E25.7108
G1 X112.579 Y145.584 E25.82879
G1 X111.908 Y147.01 E25.93887
G1 X111.201 Y148.443 E26.05048
G1 X110.674 Y149.461 E26.13054
G1 X110.407 Y149.89 E26.16584
G1 X110.075 Y150.272 E26.20119
G1 X109.688 Y150.597 E26.23649
G1 X109.254 Y150.857 E26.27182
G1 X108.785 Y151.045 E26.30711
G1 X108.292 Y151.157 E26.34243
G1 X107.271 Y151.2 E26.4138
G1 X103.485 Y151.2 E26.67824
G1 X102.744 Y151.187 E26.73
G1 X102.443 Y151.167 E26.75107
G1 X99.951 Y150.888 E26.92622
G1 X97.192 Y150.654 E27.11962
G1 X94.481 Y150.502 E27.30927
G1 X91.727 Y150.425 E27.5017
G1 X89.008 Y150.425 E27.69161
G1 X86.256 Y150.504 E27.88391
G1 X83.509 Y150.66 E28.07608
G1 X80.808 Y150.891 E28.26543
G1 X78.318 Y151.171 E28.44044
G1 X77.444 Y151.2 E28.50152
G1 X73.632 Y151.2 E28.76777
G1 X72.934 Y151.19 E28.81653
G1 X72.431 Y151.143 E28.85182
G1 X71.941 Y151.017 E28.88716
G1 X71.477 Y150.815 E28.9225
G1 X71.051 Y150.543 E28.9578
G1 X70.673 Y150.208 E28.99308
G1 X70.353 Y149.817 E29.02837
G1 X70.098 Y149.38 E29.06371
G1 X69.915 Y148.909 E29.09901
G1 X69.808 Y148.415 E29.13431
G1 X69.772 Y147.743 E29.18131
G1 X69.772 Y136.645 E29.95647
G1 X69.786 Y135.92 E30.00712
G1 X69.877 Y135.218 E30.05656
G1 X70.019 Y134.644 E30.09786
G1 X70.443 Y133.014 E30.2155
G1 X71.058 Y130.336 E30.40741
G1 X71.599 Y127.626 E30.60043
G1 X72.058 Y124.946 E30.79035
G1 X72.437 Y122.267 E30.97933
G1 X72.748 Y119.525 E31.17207
G1 X72.979 Y116.786 E31.36406
G1 X73.132 Y114.068 E31.5542
G1 X73.209 Y111.317 E31.74643
G1 X73.207 Y108.599 E31.93627
G1 X73.128 Y105.845 E32.1287
G1 X72.972 Y103.099 E32.32081
G1 X72.74 Y100.389 E32.51079
G1 X72.431 Y97.685 E32.70088
G1 X72.042 Y94.964 E32.89287
G1 X71.574 Y92.239 E33.08598
G1 X71.047 Y89.614 E33.27299
G1 X70.42 Y86.901 E33.46748
G1 X69.879 Y84.778 E33.6205
G1 X69.781 Y84.079 E33.6698
G1 X69.771 Y83.67 E33.69837
G1 X69.771 Y72.631 E34.46941
G1 F3600 E32.66941
;MESH:Clip mount.stl(1)
G0 X72.306 Y72.631
G0 X73.401 Y72.631
G0 X77.982 Y83.39
G1 F3600 E34.46941
G0 X77.982 Y83.4
;TYPE:WALL-INNER
G1 F900 X78.266 Y83.477 E34.48996
G1 X78.405 Y83.584 E34.50221
G1 X78.538 Y83.801 E34.51999
G1 X78.572 Y84 E34.53409
G1 X78.571 Y85.96 E34.67099
G1 X78.572 Y92.035 E35.0953
G1 X78.571 Y105.527 E36.03767
G1 X78.572 Y136 E38.1661
G1 X78.49 Y136.304 E38.18809
G1 X78.265 Y136.524 E38.21007
G1 X77.971 Y136.601 E38.2313
G1 X73.572 Y136.601 E38.53855
G1 X73.571 Y147.4 E39.29282
G1 X77.605 Y147.399 E39.57458
G1 X78.16 Y146.31 E39.65995
G1 X78.849 Y144.891 E39.77013
G1 X79.509 Y143.463 E39.88001
G1 X80.14 Y142.025 E39.98969
G1 X80.751 Y140.562 E40.10043
G1 X81.314 Y139.13 E40.2079
G1 X81.859 Y137.662 E40.31727
G1 X82.379 Y136.178 E40.4271
G1 X82.869 Y134.686 E40.53679
G1 X83.331 Y133.185 E40.64648
G1 X83.765 Y131.674 E40.75629
G1 X84.167 Y130.158 E40.86583
G1 X84.542 Y128.63 E40.97573
G1 X84.887 Y127.1 E41.08527
G1 X85.196 Y125.591 E41.19286
G1 X85.486 Y124.017 E41.30465
G1 X85.742 Y122.468 E41.41431
G1 X85.968 Y120.914 E41.52399
G1 X86.163 Y119.357 E41.63359
G1 X86.328 Y117.795 E41.7433
G1 X86.461 Y116.269 E41.85029
G1 X86.568 Y114.669 E41.96229
G1 X86.644 Y113.096 E42.07229
G1 X86.689 Y111.515 E42.18276
G1 X86.702 Y110.037 E42.286
G1 X86.688 Y108.433 E42.39803
G1 X86.643 Y106.865 E42.5076
G1 X86.565 Y105.261 E42.61976
G1 X86.459 Y103.694 E42.72946
G1 X86.322 Y102.133 E42.83891
G1 X86.159 Y100.61 E42.9459
G1 X85.959 Y99.017 E43.05803
G1 X85.732 Y97.466 E43.16752
G1 X85.476 Y95.921 E43.2769
G1 X85.19 Y94.377 E43.38658
G1 X84.874 Y92.844 E43.49591
G1 X84.529 Y91.315 E43.60539
G1 X84.154 Y89.793 E43.71487
G1 X83.752 Y88.279 E43.82428
G1 X83.324 Y86.789 E43.93256
G1 X82.859 Y85.275 E44.04318
G1 X82.369 Y83.787 E44.15261
G1 X81.85 Y82.309 E44.26202
G1 X81.301 Y80.836 E44.37182
G1 X80.722 Y79.366 E44.48217
G1 X80.122 Y77.934 E44.59061
G1 X79.487 Y76.488 E44.70092
G1 X78.827 Y75.063 E44.81061
G1 X78.144 Y73.659 E44.91966
G1 X77.602 Y72.6 E45.00275
G1 X73.571 Y72.6 E45.2843
G1 X73.571 Y83.4 E46.03864
G1 X77.982 Y83.4 E46.34673
G0 F3600 X77.982 Y83.39
G0 X78.509 Y136.538
G0 X77.971 Y136.201
;TYPE:WALL-OUTER
G1 F900 X73.172 Y136.201 E46.68193
G1 X73.171 Y147.8 E47.49207
G1 X77.85 Y147.799 E47.81888
G1 X78.52 Y146.485 E47.9219
G1 X79.212 Y145.059 E48.03261
G1 X79.875 Y143.624 E48.14302
G1 X80.509 Y142.179 E48.25324
G1 X81.123 Y140.708 E48.36457
G1 X81.689 Y139.27 E48.47251
G1 X82.237 Y137.794 E48.58248
G1 X82.759 Y136.304 E48.69275
G1 X83.251 Y134.804 E48.80301
G1 X83.715 Y133.295 E48.91328
G1 X84.151 Y131.777 E49.0236
G1 X84.555 Y130.254 E49.13365
G1 X84.926 Y128.751 E49.24178
G1 X85.264 Y127.246 E49.34952
G1 X85.582 Y125.704 E49.45949
G1 X85.881 Y124.083 E49.57462
G1 X86.138 Y122.526 E49.68484
G1 X86.365 Y120.964 E49.79509
G1 X86.561 Y119.399 E49.90525
G1 X86.726 Y117.83 E50.01544
G1 X86.862 Y116.259 E50.12558
G1 X86.968 Y114.689 E50.23549
G1 X87.044 Y113.108 E50.34604
G1 X87.089 Y111.519 E50.45707
G1 X87.102 Y110.041 E50.56031
G1 X87.088 Y108.425 E50.67319
G1 X87.043 Y106.849 E50.78331
G1 X86.964 Y105.234 E50.89625
G1 X86.857 Y103.66 E51.00644
G1 X86.72 Y102.091 E51.11644
G1 X86.557 Y100.564 E51.22371
G1 X86.355 Y98.959 E51.33669
G1 X86.127 Y97.401 E51.44667
G1 X85.87 Y95.848 E51.55662
G1 X85.582 Y94.297 E51.6668
G1 X85.264 Y92.756 E51.7767
G1 X84.917 Y91.22 E51.88669
G1 X84.541 Y89.691 E51.99667
G1 X84.136 Y88.169 E52.10667
G1 X83.706 Y86.672 E52.21546
G1 X83.239 Y85.15 E52.32666
G1 X82.747 Y83.655 E52.43659
G1 X82.225 Y82.169 E52.5466
G1 X81.673 Y80.69 E52.65686
G1 X81.091 Y79.212 E52.76781
G1 X80.488 Y77.773 E52.87678
G1 X79.85 Y76.32 E52.98762
G1 X79.187 Y74.888 E53.09784
G1 X78.522 Y73.52 E53.20408
G1 X77.847 Y72.2 E53.30764
G1 X73.171 Y72.2 E53.63424
G1 X73.171 Y83.8 E54.44446
G1 X77.975 Y83.8 E54.78
G1 X78.116 Y83.861 E54.79073
G1 X78.172 Y84 E54.80119
G1 X78.171 Y85.96 E54.93809
G1 X78.172 Y92.035 E55.36241
G1 X78.171 Y105.527 E56.30478
G1 X78.172 Y136 E58.4332
G1 X78.116 Y136.139 E58.44367
G1 X77.971 Y136.201 E58.45468
G0 F3600 X77.771 Y136.201
G0 X78.406 Y136.875
;TYPE:SKIN
G1 F900 X77.945 Y136.981 E58.48772
G1 X73.953 Y136.981 E58.76655
G1 X73.951 Y147.019 E59.46767
G1 X77.374 Y147.018 E59.70675
G1 X77.81 Y146.159 E59.77403
G1 X78.491 Y144.756 E59.88296
G1 X79.147 Y143.338 E59.99209
G1 X79.778 Y141.904 E60.10152
G1 X80.353 Y140.525 E60.20587
G1 X80.951 Y139.015 E60.31931
G1 X81.432 Y137.722 E60.41567
G1 X82.012 Y136.073 E60.53776
G1 X82.498 Y134.592 E60.64663
G1 X82.958 Y133.098 E60.75581
G1 X83.389 Y131.598 E60.86482
G1 X83.788 Y130.092 E60.97364
G1 X84.161 Y128.575 E61.08275
G1 X84.509 Y127.047 E61.19221
G1 X84.822 Y125.52 E61.30108
G1 X85.106 Y123.984 E61.41019
G1 X85.36 Y122.446 E61.51907
G1 X85.585 Y120.901 E61.62812
G1 X85.78 Y119.349 E61.73737
G1 X85.945 Y117.795 E61.84652
G1 X86.08 Y116.242 E61.9554
G1 X86.185 Y114.683 E62.06454
G1 X86.261 Y113.124 E62.17356
G1 X86.307 Y111.549 E62.28361
G1 X86.322 Y110.003 E62.3916
G1 X86.31 Y108.513 E62.49567
G1 X86.264 Y106.881 E62.60971
G1 X86.186 Y105.324 E62.7186
G1 X86.084 Y103.799 E62.82535
G1 X85.947 Y102.209 E62.93682
G1 X85.782 Y100.654 E63.04604
G1 X85.588 Y99.105 E63.15507
G1 X85.362 Y97.562 E63.264
G1 X85.108 Y96.021 E63.37308
G1 X84.823 Y94.485 E63.4822
G1 X84.507 Y92.955 E63.59132
G1 X84.161 Y91.419 E63.70129
G1 X83.792 Y89.918 E63.80925
G1 X83.392 Y88.408 E63.91836
G1 X82.965 Y86.922 E64.02635
G1 X82.504 Y85.411 E64.13669
G1 X82.017 Y83.929 E64.24565
G1 X81.499 Y82.457 E64.35464
G1 X80.953 Y80.994 E64.46371
G1 X80.381 Y79.541 E64.57278
G1 X79.785 Y78.116 E64.68066
G1 X79.152 Y76.67 E64.79091
G1 X78.505 Y75.272 E64.89851
G1 X77.956 Y74.142 E64.98626
G1 X77.368 Y72.981 E65.07716
G1 X73.952 Y72.981 E65.31575
G1 X73.952 Y83.019 E66.01687
G1 X77.988 Y83.02 E66.29877
G1 X78.482 Y83.162 E66.33467
G1 X78.703 Y83.345 E66.35471
G1 X78.868 Y83.612 E66.37663
G1 X78.953 Y84 E66.40438
G1 X78.952 Y135.995 E70.03603
G1 X78.878 Y136.369 E70.06266
G1 X78.655 Y136.703 E70.09071
G1 X78.406 Y136.875 E70.11185
G0 F3600 X74.41 Y146.817
G1 F900 X74.15 Y146.558 E70.13748
G0 F3600 X74.15 Y145.992
G1 F900 X74.975 Y146.817 E70.21897
G0 F3600 X75.541 Y146.817
G1 F900 X74.15 Y145.427 E70.35632
G0 F3600 X74.15 Y144.861
G1 F900 X76.106 Y146.817 E70.54953
G0 F3600 X76.672 Y146.817
