;FLAVOR:Marlin
;TIME:1222
;Filament used: 1.78915m
;Layer height: 0.3
;MINX:99.923
;MINY:68.4
;MINZ:0.3
;MAXX:120.1
;MAXY:151.6
;MAXZ:9.9
;Generated with Cura_SteamEngine 5.0.0
M140 S50
M105
M190 S50
M104 S215
M105
M109 S215
M82 ;absolute extrusion mode
G28 ; Auto home
G1 Z15 F300 ;Move up slightly
M107 ;Off fans
G90 ;Switch to absolute positioning
M82 ;Extruder absolute mode
G92 E0 ;Set position of extruder to 0
G0 X10 Y20 F1500 ;Move to X10 Y20 at 1500mms
G1 Z0.8 ;Move Z to 0.8
G1 F300 X180 E40 ;Extrude a line of filament
G1 F1200 Z2 ;Raise Z
G92 E0 ;Set extruder position to zero
G28 ;Auto home
G92 E0
G92 E0
G1 F3600 E-1.8
;LAYER_COUNT:33
;LAYER:0
M107
G0 X100.681 Y69.789 Z0.3
G0 X99.923 Y71.764
;TYPE:SKIRT
G1 F3600 E0
G1 F900 X100 Y71.233 E0.03748
G1 X100.154 Y70.72 E0.07489
G1 X100.383 Y70.235 E0.11235
G1 X100.681 Y69.789 E0.14981
G1 X101.042 Y69.393 E0.18724
G1 X101.458 Y69.054 E0.22472
G1 X101.92 Y68.782 E0.26217
G1 X102.417 Y68.58 E0.29964
G1 X102.939 Y68.455 E0.33713
G1 X103.456 Y68.409 E0.37338
G1 X104.007 Y68.4 E0.41187
G1 X115.845 Y68.4 E1.23872
G1 X116.543 Y68.41 E1.28747
G1 X117.077 Y68.458 E1.32492
G1 X117.598 Y68.584 E1.36236
G1 X118.095 Y68.787 E1.39986
G1 X118.556 Y69.061 E1.43732
G1 X118.971 Y69.4 E1.47474
G1 X119.331 Y69.798 E1.51223
G1 X119.628 Y70.244 E1.54965
G1 X119.856 Y70.73 E1.58715
G1 X120.008 Y71.244 E1.62459
G1 X120.09 Y71.909 E1.67139
G1 X120.1 Y72.33 E1.7008
G1 X120.1 Y147.309 E6.9378
G1 X120.091 Y148.036 E6.98859
G1 X120.044 Y148.57 E7.02603
G1 X119.919 Y149.091 E7.06345
G1 X119.717 Y149.588 E7.10092
G1 X119.444 Y150.05 E7.1384
G1 X119.106 Y150.466 E7.17584
G1 X118.709 Y150.827 E7.21332
G1 X118.263 Y151.125 E7.25079
G1 X117.778 Y151.353 E7.28822
G1 X117.264 Y151.507 E7.3257
G1 X116.592 Y151.59 E7.37299
G1 X116.17 Y151.6 E7.40247
G1 X104.16 Y151.6 E8.24133
G1 X103.468 Y151.591 E8.28966
G1 X102.934 Y151.544 E8.32711
G1 X102.413 Y151.418 E8.36454
G1 X101.916 Y151.216 E8.40202
G1 X101.454 Y150.943 E8.4395
G1 X101.039 Y150.604 E8.47693
G1 X100.678 Y150.207 E8.5144
G1 X100.38 Y149.761 E8.55187
G1 X100.152 Y149.276 E8.5893
G1 X99.999 Y148.762 E8.62676
G1 X99.923 Y148.231 E8.66423
G1 X99.927 Y147.695 E8.70166
G1 X100.011 Y147.165 E8.73914
G1 X100.328 Y146.247 E8.80698
G1 X100.999 Y144.57 E8.93314
G1 X101.937 Y142.021 E9.12285
G1 X102.81 Y139.426 E9.31408
G1 X103.598 Y136.843 E9.5027
G1 X104.332 Y134.171 E9.69625
G1 X104.972 Y131.549 E9.88476
G1 X105.545 Y128.871 E10.07604
G1 X106.042 Y126.191 E10.26642
G1 X106.463 Y123.489 E10.45742
G1 X106.802 Y120.822 E10.6452
G1 X107.073 Y118.07 E10.83835
G1 X107.262 Y115.375 E11.02705
G1 X107.375 Y112.651 E11.21747
G1 X107.411 Y109.913 E11.40873
G1 X107.371 Y107.191 E11.59887
G1 X107.252 Y104.457 E11.79001
G1 X107.057 Y101.738 E11.98041
G1 X106.788 Y99.049 E12.16916
G1 X106.436 Y96.315 E12.3617
G1 X106.013 Y93.637 E12.55107
G1 X105.515 Y90.966 E12.74084
G1 X104.933 Y88.278 E12.93294
G1 X104.292 Y85.67 E13.12052
G1 X103.561 Y83.024 E13.31226
G1 X102.751 Y80.385 E13.50507
G1 X101.889 Y77.837 E13.69294
G1 X100.935 Y75.259 E13.88494
G1 X100.171 Y73.342 E14.02908
G1 X100.01 Y72.83 E14.06657
G1 X99.927 Y72.301 E14.10397
G1 X99.923 Y71.764 E14.14148
G0 F3600 X100.321 Y72.21
G1 F900 X100.329 Y71.705 E14.17675
G1 X100.417 Y71.207 E14.21207
G1 X100.582 Y70.729 E14.24739
G1 X100.82 Y70.283 E14.2827
G1 X101.126 Y69.88 E14.31805
G1 X101.491 Y69.531 E14.35332
G1 X101.906 Y69.243 E14.3886
G1 X102.362 Y69.024 E14.42393
G1 X102.847 Y68.88 E14.45927
G1 X103.463 Y68.809 E14.50258
G1 X104.014 Y68.8 E14.54107
G1 X115.839 Y68.8 E15.367
G1 X116.537 Y68.81 E15.41576
G1 X117.04 Y68.857 E15.45105
G1 X117.53 Y68.983 E15.48639
G1 X117.994 Y69.185 E15.52173
G1 X118.42 Y69.457 E15.55703
G1 X118.798 Y69.792 E15.59231
G1 X119.118 Y70.183 E15.6276
G1 X119.373 Y70.62 E15.66294
G1 X119.556 Y71.091 E15.69824
G1 X119.663 Y71.585 E15.73354
G1 X119.699 Y72.24 E15.77936
G1 X119.7 Y147.304 E21.0223
G1 X119.691 Y148.031 E21.07308
G1 X119.645 Y148.534 E21.10836
G1 X119.52 Y149.024 E21.14368
G1 X119.319 Y149.488 E21.179
G1 X119.048 Y149.915 E21.21432
G1 X118.713 Y150.294 E21.24965
G1 X118.323 Y150.615 E21.28494
G1 X117.887 Y150.871 E21.32025
G1 X117.416 Y151.054 E21.35554
G1 X116.922 Y151.162 E21.39086
G1 X116.26 Y151.199 E21.43717
G1 X104.165 Y151.2 E22.28196
G1 X103.473 Y151.191 E22.3303
G1 X102.97 Y151.144 E22.36559
G1 X102.48 Y151.019 E22.40091
G1 X102.016 Y150.818 E22.43623
G1 X101.59 Y150.547 E22.47149
G1 X101.211 Y150.212 E22.50682
G1 X100.89 Y149.821 E22.54216
G1 X100.635 Y149.385 E22.57743
G1 X100.451 Y148.914 E22.61275
G1 X100.344 Y148.42 E22.64806
G1 X100.316 Y147.915 E22.68338
G1 X100.368 Y147.412 E22.7187
G1 X100.527 Y146.847 E22.7597
G1 X100.719 Y146.345 E22.79724
G1 X101.374 Y144.71 E22.92026
G1 X102.316 Y142.15 E23.11079
G1 X103.185 Y139.565 E23.30127
G1 X103.99 Y136.927 E23.49391
G1 X104.711 Y134.3 E23.68419
G1 X105.365 Y131.622 E23.87673
G1 X105.943 Y128.921 E24.06966
G1 X106.432 Y126.288 E24.25671
G1 X106.856 Y123.569 E24.44891
G1 X107.202 Y120.84 E24.64105
G1 X107.471 Y118.101 E24.83328
G1 X107.662 Y115.384 E25.02352
G1 X107.774 Y112.674 E25.21297
G1 X107.811 Y109.913 E25.40583
G1 X107.77 Y107.167 E25.59765
G1 X107.652 Y104.449 E25.78767
G1 X107.456 Y101.703 E25.97995
G1 X107.184 Y98.994 E26.17012
G1 X106.834 Y96.273 E26.36174
G1 X106.408 Y93.574 E26.55259
G1 X105.905 Y90.881 E26.74393
G1 X105.326 Y88.204 E26.93524
G1 X104.667 Y85.522 E27.12814
G1 X103.946 Y82.915 E27.31706
G1 X103.137 Y80.277 E27.50979
G1 X102.267 Y77.706 E27.69936
G1 X101.315 Y75.135 E27.89085
G1 X100.542 Y73.194 E28.03678
G1 X100.393 Y72.711 E28.07208
G1 X100.321 Y72.21 E28.10744
G1 F3600 E26.30744
;MESH:WS Pole Clip.stl
G0 X103.172 Y72.875
G0 X104.157 Y72.42
G0 X106.8 Y77.704
G1 F3600 E28.10744
G0 X106.791 Y77.706
;TYPE:WALL-INNER
G1 F900 X109.103 Y83.965 E28.57348
G1 X110.891 Y90.296 E29.03297
G1 X110.902 Y90.342 E29.03627
G1 X112.184 Y96.789 E29.49539
G1 X112.964 Y103.363 E29.95778
G1 X112.968 Y103.41 E29.96107
G1 X113.226 Y109.999 E30.42164
G1 X112.968 Y116.59 E30.88235
G1 X112.964 Y116.637 E30.88565
G1 X112.187 Y123.198 E31.34711
G1 X110.902 Y129.66 E31.8073
G1 X110.891 Y129.705 E31.81053
G1 X109.104 Y136.037 E32.27007
G1 X107.154 Y141.324 E32.66367
G1 X106.818 Y142.23 E32.73116
G1 X104.438 Y147.399 E33.12863
G1 X115.9 Y147.4 E33.92921
G1 X115.9 Y77.115 E38.83835
G1 X115.9 Y72.6 E39.15371
G1 X104.438 Y72.6 E39.95429
G1 X106.773 Y77.663 E40.34371
G1 X106.791 Y77.706 E40.34697
G0 F3600 X106.416 Y77.845
;TYPE:WALL-OUTER
G1 F900 X108.718 Y84.073 E40.81074
G1 X110.51 Y90.42 E41.27138
G1 X111.794 Y96.883 E41.73162
G1 X112.568 Y103.426 E42.19181
G1 X112.826 Y110.007 E42.65182
G1 X112.567 Y116.59 E43.11198
G1 X111.792 Y123.134 E43.57224
G1 X110.506 Y129.597 E44.03251
G1 X108.714 Y135.943 E44.49309
G1 X106.454 Y142.063 E44.94876
G1 X103.813 Y147.799 E45.38983
G1 X116.3 Y147.8 E46.262
G1 X116.3 Y77.115 E51.19908
G1 X116.3 Y72.2 E51.54238
G1 X103.813 Y72.2 E52.41455
G1 X106.416 Y77.845 E52.84873
G0 F3600 X106.485 Y78.032
G0 X107.125 Y77.517
;TYPE:SKIN
G1 F900 X109.45 Y83.802 E53.31679
G1 X111.262 Y90.207 E53.78171
G1 X112.559 Y96.728 E54.2461
G1 X113.343 Y103.335 E54.71081
G1 X113.606 Y109.975 E55.17495
G1 X113.347 Y116.62 E55.63943
G1 X112.567 Y123.225 E56.10398
G1 X111.272 Y129.75 E56.56861
G1 X109.469 Y136.147 E57.03283
G1 X107.186 Y142.334 E57.49345
G1 X105.032 Y147.019 E57.8536
G1 X115.52 Y147.02 E58.58615
G1 X115.52 Y77.115 E63.46876
G1 X115.52 Y72.98 E63.75757
G1 X105.034 Y72.98 E64.48998
G1 X107.125 Y77.517 E64.83891
G0 F3600 X115.04 Y73.179
G1 F900 X115.319 Y73.459 E64.86652
G0 F3600 X115.319 Y74.024
G1 F900 X114.474 Y73.179 E64.94998
G0 F3600 X113.909 Y73.179
G1 F900 X115.319 Y74.59 E65.08931
G0 F3600 X115.319 Y75.156
G1 F900 X113.343 Y73.179 E65.28454
G0 F3600 X112.777 Y73.179
G1 F900 X115.319 Y75.721 E65.53564
G0 F3600 X115.319 Y76.287
G1 F900 X112.212 Y73.179 E65.84259
G0 F3600 X111.646 Y73.179
G1 F900 X115.319 Y76.853 E66.20545
G0 F3600 X115.319 Y77.419
G1 F900 X111.08 Y73.179 E66.62421
G0 F3600 X110.515 Y73.179
G1 F900 X115.319 Y77.984 E67.09879
G0 F3600 X115.319 Y78.55
G1 F900 X109.949 Y73.179 E67.62928
G0 F3600 X109.383 Y73.179
G1 F900 X115.319 Y79.116 E68.21567
G0 F3600 X115.319 Y79.681
G1 F900 X108.818 Y73.179 E68.85787
G0 F3600 X108.252 Y73.179
G1 F900 X115.319 Y80.247 E69.55598
G0 F3600 X115.319 Y80.813
G1 F900 X107.686 Y73.179 E70.31
G0 F3600 X107.121 Y73.179
G1 F900 X115.319 Y81.378 E71.11983
G0 F3600 X115.319 Y81.944
G1 F900 X106.555 Y73.179 E71.98556
G0 F3600 X105.989 Y73.179
G1 F900 X115.319 Y82.51 E72.90721
G0 F3600 X115.319 Y83.075
G1 F900 X105.423 Y73.179 E73.88471
G1 X105.353 Y73.109
G0 F3600 X105.76 Y74.082
G1 F900 X115.319 Y83.641 E74.82893
G0 F3600 X115.319 Y84.207
G1 F900 X106.244 Y75.132 E75.72533
G1 X106.174 Y75.062
G0 F3600 X106.729 Y76.182
G1 F900 X115.319 Y84.772 E76.57383
G0 F3600 X115.319 Y85.338
G1 F900 X107.213 Y77.232 E77.37452
G1 X107.143 Y77.162
G0 F3600 X107.572 Y78.157
G1 F900 X115.319 Y85.904 E78.13975
G0 F3600 X115.319 Y86.469
G1 F900 X107.905 Y79.055 E78.87209
G1 X107.835 Y78.985
G0 F3600 X108.238 Y79.953
G1 F900 X115.319 Y87.035 E79.57158
G0 F3600 X115.319 Y87.601
G1 F900 X108.57 Y80.852 E80.23823
G1 X108.5 Y80.782
G0 F3600 X108.903 Y81.75
G1 F900 X115.319 Y88.167 E80.87204
G0 F3600 X115.319 Y88.732
G1 F900 X109.235 Y82.648 E81.473
G1 X109.165 Y82.578
G0 F3600 X109.568 Y83.546
G1 F900 X115.319 Y89.298 E82.04112
G0 F3600 X115.319 Y89.864
G1 F900 X109.812 Y84.356 E82.58514
G1 X109.742 Y84.286
G0 F3600 X110.035 Y85.145
G1 F900 X115.319 Y90.429 E83.10708
G0 F3600 X115.319 Y90.995
G1 F900 X110.259 Y85.934 E83.60694
G1 X110.189 Y85.864
G0 F3600 X110.482 Y86.723
G1 F900 X115.319 Y91.561 E84.08478
G0 F3600 X115.319 Y92.126
G1 F900 X110.706 Y87.512 E84.54049
G1 X110.636 Y87.442
G0 F3600 X110.928 Y88.301
G1 F900 X115.319 Y92.692 E84.97422
G0 F3600 X115.319 Y93.258
G1 F900 X111.152 Y89.09 E85.38588
G1 X111.082 Y89.02
G0 F3600 X111.375 Y89.879
G1 F900 X115.319 Y93.823 E85.77545
G0 F3600 X115.319 Y94.389
G1 F900 X111.543 Y90.613 E86.14844
G0 F3600 X111.684 Y91.32
G1 F900 X115.319 Y94.955 E86.5075
G0 F3600 X115.319 Y95.52
G1 F900 X111.825 Y92.026 E86.85262
G0 F3600 X111.966 Y92.732
G1 F900 X115.319 Y96.086 E87.18387
G0 F3600 X115.319 Y96.652
G1 F900 X112.107 Y93.439 E87.5012
G0 F3600 X112.248 Y94.146
G1 F900 X115.319 Y97.217 E87.80454
G0 F3600 X115.319 Y97.783
G1 F900 X112.388 Y94.852 E88.09406
G0 F3600 X112.53 Y95.559
G1 F900 X115.319 Y98.349 E88.3696
G0 F3600 X115.319 Y98.915
G1 F900 X112.671 Y96.266 E88.63121
G0 F3600 X112.784 Y96.945
G1 F900 X115.319 Y99.48 E88.88161
G0 F3600 X115.319 Y100.046
G1 F900 X112.861 Y97.587 E89.12446
G0 F3600 X112.937 Y98.229
G1 F900 X115.319 Y100.612 E89.3598
G0 F3600 X115.319 Y101.177
G1 F900 X113.014 Y98.871 E89.58753
G0 F3600 X113.09 Y99.513
G1 F900 X115.319 Y101.743 E89.80775
G0 F3600 X115.319 Y102.309
G1 F900 X113.166 Y100.156 E90.02042
G0 F3600 X113.243 Y100.798
G1 F900 X115.319 Y102.874 E90.22548
G0 F3600 X115.319 Y103.44
G1 F900 X113.319 Y101.44 E90.42304
G0 F3600 X113.395 Y102.082
G1 F900 X115.319 Y104.006 E90.61309
G0 F3600 X115.319 Y104.571
G1 F900 X113.472 Y102.724 E90.79553
G0 F3600 X113.542 Y103.36
G1 F900 X115.319 Y105.137 E90.97106
G0 F3600 X115.319 Y105.703
G1 F900 X113.566 Y103.949 E91.14426
G0 F3600 X113.589 Y104.538
G1 F900 X115.319 Y106.268 E91.31515
G0 F3600 X115.319 Y106.834
G1 F900 X113.613 Y105.128 E91.48366
G0 F3600 X113.637 Y105.717
G1 F900 X115.319 Y107.4 E91.64985
G0 F3600 X115.319 Y107.966
G1 F900 X113.66 Y106.306 E91.81378
G0 F3600 X113.683 Y106.895
G1 F900 X115.319 Y108.531 E91.97538
G0 F3600 X115.319 Y109.097
G1 F900 X113.707 Y107.484 E92.13466
G0 F3600 X113.73 Y108.073
G1 F900 X115.319 Y109.663 E92.29166
G0 F3600 X115.319 Y110.228
G1 F900 X113.753 Y108.662 E92.44635
G0 F3600 X113.777 Y109.251
G1 F900 X115.319 Y110.794 E92.59871
G0 F3600 X115.319 Y111.36
G1 F900 X113.8 Y109.84 E92.7488
G0 F3600 X113.787 Y110.393
G1 F900 X115.319 Y111.925 E92.90013
G0 F3600 X115.319 Y112.491
G1 F900 X113.767 Y110.938 E93.05348
G0 F3600 X113.745 Y111.483
G1 F900 X115.319 Y113.057 E93.20896
G0 F3600 X115.319 Y113.622
G1 F900 X113.724 Y112.027 E93.36651
G0 F3600 X113.703 Y112.572
G1 F900 X115.319 Y114.188 E93.52613
G0 F3600 X115.319 Y114.754
G1 F900 X113.682 Y113.116 E93.68788
G0 F3600 X113.661 Y113.661
G1 F900 X115.319 Y115.319 E93.85166
G0 F3600 X115.319 Y115.885
G1 F900 X113.64 Y114.206 E94.0175
G0 F3600 X113.619 Y114.75
G1 F900 X115.319 Y116.451 E94.18548
G0 F3600 X115.319 Y117.016
G1 F900 X113.598 Y115.295 E94.35547
G0 F3600 X113.577 Y115.84
G1 F900 X115.319 Y117.582 E94.52754
G0 F3600 X115.319 Y118.148
G1 F900 X113.556 Y116.384 E94.70174
G0 F3600 X113.512 Y116.906
G1 F900 X115.319 Y118.714 E94.88028
G0 F3600 X115.319 Y119.279
G1 F900 X113.453 Y117.412 E95.06464
G0 F3600 X113.393 Y117.919
G1 F900 X115.319 Y119.845 E95.25489
G0 F3600 X115.319 Y120.411
G1 F900 X113.333 Y118.424 E95.45111
G0 F3600 X113.274 Y118.931
G1 F900 X115.319 Y120.976 E95.65311
G0 F3600 X115.319 Y121.542
G1 F900 X113.214 Y119.437 E95.86104
G0 F3600 X113.154 Y119.942
G1 F900 X115.319 Y122.108 E96.07494
G0 F3600 X115.319 Y122.673
G1 F900 X113.095 Y120.449 E96.29462
G0 F3600 X113.035 Y120.955
G1 F900 X115.319 Y123.239 E96.52023
G0 F3600 X115.319 Y123.805
G1 F900 X112.975 Y121.461 E96.75177
G0 F3600 X112.916 Y121.967
G1 F900 X115.319 Y124.37 E96.98913
G0 F3600 X115.319 Y124.936
G1 F900 X112.857 Y122.473 E97.23237
G0 F3600 X112.796 Y122.979
G1 F900 X115.319 Y125.502 E97.48158
G0 F3600 X115.319 Y126.067
G1 F900 X112.72 Y123.468 E97.73831
G0 F3600 X112.627 Y123.94
G1 F900 X115.319 Y126.633 E98.00427
G0 F3600 X115.319 Y127.199
G1 F900 X112.533 Y124.412 E98.27951
G0 F3600 X112.439 Y124.884
G1 F900 X115.319 Y127.765 E98.56404
G0 F3600 X115.319 Y128.33
G1 F900 X112.346 Y125.357 E98.8577
G0 F3600 X112.252 Y125.828
G1 F900 X115.319 Y128.896 E99.1607
G0 F3600 X115.319 Y129.462
G1 F900 X112.159 Y126.301 E99.47289
G0 F3600 X112.065 Y126.773
G1 F900 X115.319 Y130.027 E99.79431
G0 F3600 X115.319 Y130.593
G1 F900 X111.971 Y127.245 E100.12502
G0 F3600 X111.878 Y127.717
G1 F900 X115.319 Y131.159 E100.46496
G0 F3600 X115.319 Y131.724
G1 F900 X111.785 Y128.189 E100.81409
G0 F3600 X111.691 Y128.661
G1 F900 X115.319 Y132.29 E101.17251
G0 F3600 X115.319 Y132.856
G1 F900 X111.597 Y129.133 E101.54021
G0 F3600 X111.504 Y129.606
G1 F900 X115.319 Y133.421 E101.91704
G0 F3600 X115.319 Y133.987
G1 F900 X111.39 Y130.058 E102.30514
G0 F3600 X111.266 Y130.5
G1 F900 X115.319 Y134.553 E102.70548
G0 F3600 X115.319 Y135.118
G1 F900 X111.142 Y130.941 E103.11808
G0 F3600 X111.017 Y131.382
G1 F900 X115.319 Y135.684 E103.54302
G0 F3600 X115.319 Y136.25
G1 F900 X110.894 Y131.824 E103.98016
G0 F3600 X110.769 Y132.265
G1 F900 X115.319 Y136.815 E104.4296
G0 F3600 X115.319 Y137.381
G1 F900 X110.645 Y132.706 E104.89133
G0 F3600 X110.521 Y133.148
G1 F900 X115.319 Y137.947 E105.36532
G0 F3600 X115.319 Y138.513
G1 F900 X110.397 Y133.59 E105.85155
G0 F3600 X110.272 Y134.031
G1 F900 X115.319 Y139.078 E106.35008
G0 F3600 X115.319 Y139.644
G1 F900 X110.148 Y134.473 E106.86086
G0 F3600 X110.024 Y134.914
G1 F900 X115.319 Y140.21 E107.38394
G0 F3600 X115.319 Y140.775
G1 F900 X109.899 Y135.355 E107.91931
G0 F3600 X109.776 Y135.797
G1 F900 X115.319 Y141.341 E108.46688
G0 F3600 X115.319 Y141.907
G1 F900 X109.648 Y136.235 E109.0271
G0 F3600 X109.496 Y136.649
G1 F900 X115.319 Y142.472 E109.60228
G0 F3600 X115.319 Y143.038
G1 F900 X109.343 Y137.062 E110.19258
G0 F3600 X109.191 Y137.475
G1 F900 X115.319 Y143.604 E110.79793
G0 F3600 X115.319 Y144.169
