;FLAVOR:Marlin
;TIME:3942
;Filament used: 5.07454m
;Layer height: 0.3
;MINX:28.248
;MINY:112.005
;MINZ:0.3
;MAXX:136.851
;MAXY:168.609
;MAXZ:6.6
;Generated with Cura_SteamEngine 5.0.0
M140 S50
M105
M190 S50
M104 S215
M105
M109 S215
M82 ;absolute extrusion mode
G28 ; Auto home
G1 Z15 F300 ;Move up slightly
M107 ;Off fans
G90 ;Switch to absolute positioning
M82 ;Extruder absolute mode
G92 E0 ;Set position of extruder to 0
G0 X10 Y20 F1500 ;Move to X10 Y20 at 1500mms
G1 Z0.8 ;Move Z to 0.8
G1 F300 X180 E40 ;Extrude a line of filament
G1 F1200 Z2 ;Raise Z
G92 E0 ;Set extruder position to zero
G28 ;Auto home
G92 E0
G92 E0
G1 F3600 E-1.8
;LAYER_COUNT:22
;LAYER:0
M107
G0 X30.552 Y112.147 Z0.3
G0 X28.249 Y115.836
;TYPE:SKIRT
G1 F3600 E0
G1 F900 X28.261 Y115.158 E0.04736
G1 X28.309 Y114.655 E0.08266
G1 X28.437 Y114.166 E0.11796
G1 X28.64 Y113.703 E0.15327
G1 X28.913 Y113.278 E0.18855
G1 X29.25 Y112.901 E0.22387
G1 X29.642 Y112.581 E0.25922
G1 X30.08 Y112.328 E0.29455
G1 X30.552 Y112.147 E0.32985
G1 X31.046 Y112.042 E0.36513
G1 X31.69 Y112.007 E0.41018
G1 X132.989 Y112.005 E7.48553
G1 X133.688 Y112.015 E7.53436
G1 X134.191 Y112.062 E7.56965
G1 X134.681 Y112.188 E7.60499
G1 X135.145 Y112.39 E7.64033
G1 X135.571 Y112.662 E7.67564
G1 X135.949 Y112.997 E7.71091
G1 X136.269 Y113.388 E7.7462
G1 X136.524 Y113.825 E7.78154
G1 X136.707 Y114.296 E7.81684
G1 X136.814 Y114.79 E7.85214
G1 X136.85 Y115.439 E7.89754
G1 X136.851 Y164.713 E11.33915
G1 X136.842 Y165.44 E11.38993
G1 X136.796 Y165.943 E11.42521
G1 X136.671 Y166.433 E11.46053
G1 X136.47 Y166.897 E11.49585
G1 X136.199 Y167.324 E11.53117
G1 X135.864 Y167.703 E11.5665
G1 X135.474 Y168.024 E11.60178
G1 X135.038 Y168.28 E11.6371
G1 X134.567 Y168.463 E11.67239
G1 X134.073 Y168.571 E11.70771
G1 X133.411 Y168.608 E11.75402
G1 X32.113 Y168.609 E18.82931
G1 X31.415 Y168.6 E18.87806
G1 X30.911 Y168.553 E18.91342
G1 X30.421 Y168.428 E18.94874
G1 X29.957 Y168.227 E18.98406
G1 X29.531 Y167.956 E19.01932
G1 X29.152 Y167.621 E19.05465
G1 X28.831 Y167.23 E19.08999
G1 X28.576 Y166.794 E19.12527
G1 X28.392 Y166.323 E19.16059
G1 X28.285 Y165.829 E19.19589
G1 X28.248 Y165.124 E19.2452
G1 X28.249 Y115.836 E22.68778
G1 F3600 E20.88778
;MESH:WK Top.stl
G0 X30.782 Y115.838
G0 X31.877 Y115.838
G0 X32.946 Y132.709
G0 X38.439 Y135.387
G1 F3600 E22.68778
G0 X38.449 Y135.387
;TYPE:WALL-INNER
G1 F900 X38.472 Y135.218 E22.6997
G1 X38.569 Y135.026 E22.71472
G1 X38.767 Y134.857 E22.7329
G1 X39.049 Y134.787 E22.7532
G1 X78.149 Y134.787 E25.48419
G1 X78.431 Y134.857 E25.50448
G1 X78.629 Y135.026 E25.52266
G1 X78.726 Y135.218 E25.53769
G1 X78.749 Y135.387 E25.5496
G1 X78.749 Y138.327 E25.75495
G1 X78.744 Y138.405 E25.76041
G1 X78.633 Y138.683 E25.78132
G1 X78.417 Y138.865 E25.80105
G1 X78.149 Y138.927 E25.82026
G1 X39.049 Y138.927 E28.55125
G1 X38.766 Y138.857 E28.57161
G1 X38.547 Y138.658 E28.59228
G1 X38.457 Y138.431 E28.60933
G1 X38.449 Y138.327 E28.61662
G1 X38.449 Y135.387 E28.82197
G0 F3600 X38.849 Y135.387
;TYPE:WALL-OUTER
G1 F900 X38.889 Y135.266 E28.83087
G1 X39.049 Y135.187 E28.84333
G1 X78.149 Y135.187 E31.57432
G1 X78.309 Y135.266 E31.58679
G1 X78.349 Y135.387 E31.59569
G1 X78.348 Y138.353 E31.80285
G1 X78.265 Y138.49 E31.81404
G1 X78.149 Y138.527 E31.82254
G1 X39.027 Y138.526 E34.55507
G1 X38.881 Y138.438 E34.56698
G1 X38.849 Y138.327 E34.57505
G1 X38.849 Y135.387 E34.78039
G0 F3600 X38.889 Y135.266
G0 X38.954 Y135.234
G0 X38.954 Y134.777
G0 X38.439 Y160.787
G0 X38.449 Y160.787
;TYPE:WALL-INNER
G1 F900 X38.495 Y160.556 E34.79684
G1 X38.688 Y160.306 E34.8189
G1 X38.917 Y160.201 E34.8365
G1 X39.049 Y160.187 E34.84577
G1 X78.192 Y160.188 E37.57976
G1 X78.473 Y160.281 E37.60044
G1 X78.62 Y160.414 E37.61428
G1 X78.742 Y160.689 E37.6353
G1 X78.749 Y160.787 E37.64216
G1 X78.749 Y163.727 E37.84751
G1 X78.629 Y164.088 E37.87408
G1 F849.1 X78.256 Y164.343 E37.90753
G1 F810.8 X78.149 Y164.347 E37.91583
G1 F816.3 X39.049 Y164.347 E40.92675
G1 F857.1 X38.569 Y164.088 E40.96675
G1 F900 X38.449 Y163.727 E40.99332
G1 X38.449 Y160.787 E41.19867
G0 F3600 X38.849 Y160.787
;TYPE:WALL-OUTER
G1 F900 X38.904 Y160.649 E41.20904
G1 X39.049 Y160.587 E41.22006
G1 X78.178 Y160.588 E43.95307
G1 X78.306 Y160.662 E43.9634
G1 X78.349 Y160.787 E43.97263
G1 X78.349 Y163.727 E44.17798
G1 X78.309 Y163.848 E44.18688
G1 X78.149 Y163.927 E44.19935
G1 X39.049 Y163.927 E46.93034
G1 X38.889 Y163.848 E46.9428
G1 X38.849 Y163.727 E46.9517
G1 X38.849 Y160.787 E47.15705
G0 F3600 X38.904 Y160.649
G0 X38.952 Y160.629
G0 X38.952 Y160.177
G0 X116.417 Y144.756
G0 X116.427 Y144.756
;TYPE:WALL-INNER
G1 F900 X116.501 Y144.492 E47.1762
G1 X116.645 Y144.318 E47.19198
G1 X116.785 Y144.232 E47.20345
G1 X117.027 Y144.181 E47.22073
G1 X125.256 Y144.182 E47.79549
G1 X131.427 Y144.182 E48.22651
G1 X131.658 Y144.227 E48.24295
G1 X131.908 Y144.421 E48.26505
G1 X132.027 Y144.782 E48.2916
G1 X132.027 Y148.182 E48.52908
G1 X132.019 Y148.286 E48.53636
G1 X131.908 Y148.542 E48.55585
G1 X131.659 Y148.737 E48.57794
G1 X131.427 Y148.782 E48.59445
G1 X117.027 Y148.782 E49.60024
G1 X116.766 Y148.723 E49.61893
G1 X116.545 Y148.54 E49.63897
G1 X116.432 Y148.266 E49.65967
G1 X116.427 Y147.378 E49.72169
G1 X116.427 Y144.756 E49.90483
G0 F3600 X116.417 Y144.756
G0 X116.417 Y148.182
G0 X116.827 Y148.182
;TYPE:WALL-OUTER
G1 F900 X116.828 Y144.753 E50.14433
G1 X116.899 Y144.627 E50.15443
G1 X117.027 Y144.581 E50.16393
G1 X125.256 Y144.582 E50.7387
G1 X131.427 Y144.582 E51.16972
G1 X131.588 Y144.661 E51.18225
G1 X131.627 Y144.782 E51.19113
G1 X131.627 Y148.182 E51.4286
G1 X131.588 Y148.302 E51.43742
G1 X131.505 Y148.367 E51.44478
G1 X131.427 Y148.382 E51.45033
G1 X117.008 Y148.382 E52.45744
G1 X116.866 Y148.302 E52.46883
G1 X116.827 Y148.182 E52.47764
G0 F3600 X116.827 Y147.982
G0 X116.417 Y147.982
G0 X116.489 Y144.244
G0 X117.017 Y140.798
G0 X119.305 Y137.033
G0 X120.641 Y137.734
G0 X120.637 Y137.741
;TYPE:WALL-INNER
G1 F900 X121.371 Y138.133 E52.53576
G1 X122.126 Y138.503 E52.59449
G1 X123.369 Y139.05 E52.68934
G1 X123.55 Y139.197 E52.70563
G1 X123.681 Y139.494 E52.7283
G1 X123.652 Y139.785 E52.74872
G1 X123.142 Y141.034 E52.84295
G1 X123.034 Y141.207 E52.8572
G1 X122.842 Y141.35 E52.87392
G1 X122.586 Y141.407 E52.89224
G1 X117.66 Y141.407 E53.2363
G1 X117.473 Y141.378 E53.24952
G1 X117.259 Y141.255 E53.26676
G1 X117.086 Y140.996 E53.28851
G1 X117.053 Y140.817 E53.30123
G1 X117.139 Y140.485 E53.32518
G1 X118.883 Y137.604 E53.56041
G1 X119.148 Y137.273 E53.59002
G1 X119.351 Y137.185 E53.60547
G1 X119.536 Y137.173 E53.61842
G1 X119.867 Y137.298 E53.64314
G1 X120.637 Y137.741 E53.70518
G0 F3600 X120.641 Y137.734
G0 X121.832 Y138.349
G0 X121.651 Y138.716
;TYPE:WALL-OUTER
G1 F900 X122.33 Y139.029 E53.75741
G1 X123.181 Y139.404 E53.82236
G1 X123.274 Y139.508 E53.8321
G1 X123.273 Y139.657 E53.84251
G1 X122.772 Y140.883 E53.93502
G1 X122.672 Y140.988 E53.94515
G1 X122.586 Y141.007 E53.9513
G1 X117.66 Y141.007 E54.29536
G1 X117.526 Y140.957 E54.30535
G1 X117.453 Y140.803 E54.31725
G1 X117.55 Y140.577 E54.33443
G1 X119.313 Y137.667 E54.57208
G1 X119.44 Y137.575 E54.58303
G1 X119.585 Y137.597 E54.59327
G1 X120.344 Y138.034 E54.65444
G1 X120.992 Y138.385 E54.70592
G1 X121.651 Y138.716 E54.75743
G0 F3600 X121.832 Y138.799
G0 X122.011 Y138.436
G0 X124.846 Y136.817
G0 X126.421 Y133.067
G0 X124.659 Y132.176
G0 X124.654 Y132.186
;TYPE:WALL-INNER
G1 F900 X125.111 Y132.41 E54.79297
G1 X125.914 Y132.771 E54.85447
G1 X125.965 Y132.793 E54.85835
G1 X126.169 Y132.943 E54.87603
G1 X126.269 Y133.097 E54.88886
G1 X126.319 Y133.296 E54.90319
G1 X126.272 Y133.578 E54.92316
G1 X125.115 Y136.341 E55.13238
G1 X124.949 Y136.565 E55.15185
G1 X124.794 Y136.66 E55.16455
G1 X124.608 Y136.704 E55.1779
G1 X124.32 Y136.655 E55.19831
G1 X123.567 Y136.322 E55.25581
G1 X122.988 Y136.044 E55.30068
G1 X122.419 Y135.751 E55.34538
G1 X121.857 Y135.442 E55.39017
G1 X121.161 Y135.028 E55.44674
G1 X120.98 Y134.839 E55.46501
G1 X120.909 Y134.669 E55.47788
G1 X120.894 Y134.486 E55.49071
G1 X120.981 Y134.212 E55.51079
G1 X122.561 Y131.659 E55.72049
G1 X122.765 Y131.46 E55.7404
G1 X122.961 Y131.386 E55.75503
G1 X123.144 Y131.38 E55.76782
G1 X123.428 Y131.488 E55.78904
G1 X123.991 Y131.824 E55.83483
G1 X124.654 Y132.186 E55.8876
G0 F3600 X124.933 Y132.768
;TYPE:WALL-OUTER
G1 F900 X125.75 Y133.136 E55.95018
G1 X125.802 Y133.159 E55.95415
G1 X125.903 Y133.26 E55.96413
G1 X125.904 Y133.423 E55.97551
G1 X124.747 Y136.184 E56.18461
G1 X124.64 Y136.29 E56.19513
G1 X124.481 Y136.289 E56.20623
G1 X123.74 Y135.962 E56.2628
G1 X123.171 Y135.688 E56.30692
G1 X122.612 Y135.401 E56.3508
G1 X122.061 Y135.098 E56.39473
G1 X121.382 Y134.694 E56.44991
G1 X121.298 Y134.575 E56.46008
G1 X121.322 Y134.422 E56.4709
G1 X122.901 Y131.87 E56.68051
G1 X123.035 Y131.779 E56.69182
G1 X123.223 Y131.832 E56.70547
G1 X123.799 Y132.175 E56.75229
G1 X124.476 Y132.543 E56.80611
G1 X124.933 Y132.768 E56.84169
G0 F3600 X125.115 Y132.85
G0 X125.281 Y132.478
G0 X123.907 Y129.608
G0 X124.141 Y129.113
;TYPE:WALL-INNER
G1 F900 X125.195 Y127.409 E56.98164
G1 X125.377 Y127.223 E56.99981
G1 X125.561 Y127.143 E57.01383
G1 X125.751 Y127.127 E57.02714
G1 X126.05 Y127.231 E57.04925
G1 X126.407 Y127.444 E57.07829
G1 X126.922 Y127.724 E57.11923
G1 X127.434 Y127.973 E57.159
G1 X127.941 Y128.195 E57.19766
G1 X128.124 Y128.346 E57.21423
G1 X128.22 Y128.512 E57.22762
G1 X128.259 Y128.706 E57.24145
G1 X128.213 Y128.959 E57.25941
G1 X127.44 Y130.808 E57.39938
G1 X127.257 Y131.046 E57.42035
G1 X127.095 Y131.137 E57.43333
G1 X126.916 Y131.173 E57.44608
G1 X126.645 Y131.123 E57.46533
G1 X126.075 Y130.872 E57.50883
G1 X125.44 Y130.56 E57.55825
G1 X124.823 Y130.226 E57.60725
G1 X124.327 Y129.932 E57.64753
G1 X124.15 Y129.756 E57.66496
G1 X124.075 Y129.59 E57.67768
G1 X124.053 Y129.405 E57.6907
G1 X124.141 Y129.113 E57.712
G0 F3600 X124.482 Y129.322
;TYPE:WALL-OUTER
G1 F900 X125.535 Y127.62 E57.85179
G1 X125.657 Y127.531 E57.86234
G1 X125.845 Y127.575 E57.87582
G1 X126.202 Y127.788 E57.90486
G1 X126.746 Y128.084 E57.94811
G1 X127.274 Y128.34 E57.9891
G1 X127.753 Y128.549 E58.0256
G1 X127.846 Y128.655 E58.03545
G1 X127.844 Y128.805 E58.04593
G1 X127.072 Y130.652 E58.18575
G1 X126.957 Y130.761 E58.19682
G1 X126.806 Y130.757 E58.20737
G1 X126.251 Y130.512 E58.24974
G1 X125.63 Y130.208 E58.29803
G1 X125.027 Y129.882 E58.34591
G1 X124.544 Y129.596 E58.38512
G1 X124.46 Y129.482 E58.39501
G1 X124.482 Y129.322 E58.40629
G0 F3600 X124.587 Y129.152
G0 X124.239 Y128.936
G0 X126.185 Y125.678
;TYPE:WALL-INNER
G1 F687 X126.464 Y125.264 E58.45197
G1 F742.3 X126.744 Y124.849 E58.49437
G1 F809 X127.023 Y124.435 E58.53316
G1 F886.7 X127.303 Y124.02 E58.56865
G1 F916 X127.652 Y123.747 E58.59906
G1 F900 X127.963 Y123.744 E58.62078
G1 X128.434 Y123.993 E58.65799
G1 X128.903 Y124.242 E58.69508
G1 X129.483 Y124.504 E58.73953
G1 X129.689 Y124.653 E58.75729
G1 X129.8 Y124.835 E58.77218
G1 F920.7 X129.782 Y125.291 E58.80334
G1 F888.9 X129.602 Y125.76 E58.83887
G1 F800 X129.422 Y126.23 E58.87841
G1 F728.7 X129.242 Y126.7 E58.92183
G1 F667.9 X129.061 Y127.17 E58.96923
G1 F748.4 X128.672 Y127.448 E59.00939
G1 F900 X128.485 Y127.495 E59.02285
G1 X128.2 Y127.449 E59.04302
G1 X127.446 Y127.105 E59.1009
G1 X127.442 Y127.102 E59.10125
G1 X126.967 Y126.852 E59.13874
G1 X126.431 Y126.537 E59.18217
G1 X126.24 Y126.338 E59.20143
G1 X126.17 Y126.162 E59.21466
G1 F762.7 X126.185 Y125.678 E59.25457
G0 F3600 X126.586 Y125.926
;TYPE:WALL-OUTER
G1 F900 X127.642 Y124.22 E59.39471
G1 X127.759 Y124.133 E59.4049
G1 X127.915 Y124.153 E59.41588
G1 X128.395 Y124.429 E59.45455
G1 X128.896 Y124.682 E59.49376
G1 X129.366 Y124.897 E59.52986
G1 X129.427 Y124.98 E59.53705
G1 X129.424 Y125.134 E59.54781
G1 X128.619 Y126.977 E59.68828
G1 X128.514 Y127.08 E59.69855
G1 X128.356 Y127.081 E59.70959
G1 X127.618 Y126.743 E59.76628
G1 X127.617 Y126.742 E59.76638
G1 X127.153 Y126.497 E59.80303
G1 X126.648 Y126.201 E59.84392
G1 X126.561 Y126.076 E59.85455
G1 X126.586 Y125.926 E59.86517
G0 F3600 X126.691 Y125.756
G0 X126.344 Y125.54
G0 X125.29 Y125.679
G0 X123.408 Y125.1
G0 X123.401 Y125.107
;TYPE:WALL-INNER
G1 F900 X123.835 Y125.535 E59.90775
G1 X124.361 Y126.011 E59.9573
G1 X124.489 Y126.208 E59.97371
G1 X124.53 Y126.393 E59.98694
G1 X124.51 Y126.591 E60.00084
G1 X124.388 Y126.821 E60.01903
G1 X123.078 Y128.341 E60.15918
G1 X122.829 Y128.512 E60.18028
G1 X122.644 Y128.546 E60.19342
G1 X122.463 Y128.525 E60.20614
G1 X122.226 Y128.395 E60.22502
G1 X121.79 Y128.007 E60.26579
G1 X121.296 Y127.53 E60.31375
G1 X120.831 Y127.045 E60.36068
G1 X120.379 Y126.536 E60.40823
G1 X120.249 Y126.292 E60.42754
G1 X120.229 Y126.11 E60.44033
G1 X120.265 Y125.928 E60.45329
G1 X120.441 Y125.678 E60.47464
G1 X121.97 Y124.388 E60.61437
G1 X122.203 Y124.266 E60.63274
G1 X122.402 Y124.248 E60.64669
G1 X122.588 Y124.292 E60.66004
G1 X122.848 Y124.494 E60.68304
G1 X123.401 Y125.107 E60.7407
G0 F3600 X123.408 Y125.1
G0 X123.419 Y123.938
G0 X123.426 Y123.934
G1 F900 X123.303 Y123.686 E60.76004
G1 X123.291 Y123.495 E60.77341
G1 F764.3 X123.46 Y123.034 E60.81379
G1 F696.3 X123.982 Y122.626 E60.8736
G1 F772.5 X124.505 Y122.218 E60.92757
G1 F869.6 X125.028 Y121.81 E60.97553
G1 F913.7 X125.438 Y121.664 E61.00547
G1 F900 X125.736 Y121.758 E61.02729
G1 X126.086 Y122.116 E61.06226
G1 X126.579 Y122.626 E61.11181
G1 X126.984 Y122.994 E61.15003
G1 X127.098 Y123.169 E61.16462
G1 X127.144 Y123.377 E61.1795
G1 F916 X126.994 Y123.791 E61.20971
G1 F886.7 X126.683 Y124.183 E61.24519
G1 F809 X126.371 Y124.575 E61.28412
G1 F742.3 X126.059 Y124.967 E61.32655
G1 F687 X125.747 Y125.359 E61.37239
G1 F762.7 X125.288 Y125.516 E61.41237
G1 F900 X125.099 Y125.503 E61.4256
G1 X124.841 Y125.369 E61.44591
G1 X124.378 Y124.946 E61.48971
G1 X123.999 Y124.555 E61.52775
G1 X123.426 Y123.934 E61.58676
G0 F3600 X123.734 Y123.679
;TYPE:WALL-OUTER
G1 F900 X123.689 Y123.532 E61.5975
G1 X123.764 Y123.394 E61.60847
G1 X125.282 Y122.111 E61.7473
G1 X125.421 Y122.064 E61.75754
G1 X125.564 Y122.133 E61.76863
G1 X126.075 Y122.68 E61.82092
G1 X126.678 Y123.254 E61.87907
G1 X126.744 Y123.394 E61.88988
G1 X126.696 Y123.534 E61.90021
G1 X125.389 Y125.05 E62.04002
G1 X125.255 Y125.118 E62.05052
G1 X125.105 Y125.069 E62.06154
G1 X124.652 Y124.655 E62.1044
G1 X124.293 Y124.284 E62.14046
G1 X123.734 Y123.679 E62.19799
G0 F3600 X123.689 Y123.532
G0 X123.711 Y123.491
G0 X123.422 Y123.148
G0 X121.124 Y121.891
G0 X121.116 Y121.895
;TYPE:WALL-INNER
G1 F900 X121.386 Y122.396 E62.23774
G1 X121.614 Y122.796 E62.2699
G1 X121.674 Y123.022 E62.28623
G1 X121.657 Y123.212 E62.29956
G1 X121.576 Y123.394 E62.31347
G1 X121.387 Y123.575 E62.33175
G1 X119.672 Y124.615 E62.47184
G1 X119.383 Y124.699 E62.49286
G1 X119.198 Y124.676 E62.50588
G1 X119.032 Y124.599 E62.51866
G1 X118.849 Y124.407 E62.53719
G1 X118.598 Y123.973 E62.57221
G1 X118.174 Y123.161 E62.63619
G1 X117.953 Y122.71 E62.67127
G1 X117.676 Y122.076 E62.71959
G1 X117.635 Y121.825 E62.73736
G1 X117.673 Y121.643 E62.75034
G1 X117.764 Y121.481 E62.76332
G1 X118.008 Y121.299 E62.78458
G1 X119.861 Y120.544 E62.92434
G1 X120.122 Y120.5 E62.94283
G1 X120.317 Y120.544 E62.95679
G1 X120.479 Y120.643 E62.97005
G1 X120.654 Y120.896 E62.99154
G1 X120.869 Y121.383 E63.02872
G1 X121.116 Y121.895 E63.06842
G0 F3600 X121.124 Y121.891
G0 X121.387 Y120.558
G0 X121.395 Y120.556
G1 F900 X121.356 Y120.284 E63.08762
G1 X121.402 Y120.1 E63.10086
G1 F766 X121.706 Y119.713 E63.14125
G1 F699 X122.326 Y119.488 E63.20056
G1 F775.9 X122.947 Y119.263 E63.25408
G1 F873.8 X123.567 Y119.038 E63.30153
G1 F916 X124.007 Y119.027 E63.33173
G1 F900 X124.258 Y119.21 E63.35343
