;FLAVOR:Marlin
;TIME:3766
;Filament used: 5.5364m
;Layer height: 0.3
;MINX:35.947
;MINY:86.914
;MINZ:0.3
;MAXX:96.089
;MAXY:169.328
;MAXZ:9.9
;Generated with Cura_SteamEngine 5.0.0
M140 S50
M105
M190 S50
M104 S215
M105
M109 S215
M82 ;absolute extrusion mode
G28 ; Auto home
G1 Z15 F300 ;Move up slightly
M107 ;Off fans
G90 ;Switch to absolute positioning
M82 ;Extruder absolute mode
G92 E0 ;Set position of extruder to 0
G0 X10 Y20 F1500 ;Move to X10 Y20 at 1500mms
G1 Z0.8 ;Move Z to 0.8
G1 F300 X180 E40 ;Extrude a line of filament
G1 F1200 Z2 ;Raise Z
G92 E0 ;Set extruder position to zero
G28 ;Auto home
G92 E0
G92 E0
G1 F3600 E-1.8
;LAYER_COUNT:33
;LAYER:0
M107
G0 X37.993 Y87.152 Z0.3
G0 X35.952 Y90.338
;TYPE:SKIRT
G1 F3600 E0
G1 F900 X35.96 Y89.833 E0.03528
G1 X36.048 Y89.335 E0.0706
G1 X36.213 Y88.857 E0.10592
G1 X36.451 Y88.411 E0.14123
G1 X36.757 Y88.008 E0.17657
G1 X37.122 Y87.659 E0.21184
G1 X37.537 Y87.371 E0.24713
G1 X37.993 Y87.152 E0.28246
G1 X38.478 Y87.008 E0.3178
G1 X39.094 Y86.937 E0.36111
G1 X39.645 Y86.928 E0.3996
G1 X51.47 Y86.928 E1.22553
G1 X52.497 Y86.943 E1.29727
G1 X54.692 Y87.005 E1.45064
G1 X57.414 Y87.005 E1.64076
G1 X60.1 Y86.933 E1.82844
G1 X72.324 Y86.928 E2.68224
G1 X74.083 Y86.953 E2.80511
G1 X75.027 Y86.979 E2.87107
G1 X77.758 Y86.977 E3.06182
G1 X79.944 Y86.92 E3.21456
G1 X80.45 Y86.914 E3.2499
G1 X92.228 Y86.914 E4.07255
G1 X92.926 Y86.924 E4.12131
G1 X93.429 Y86.971 E4.15659
G1 X93.919 Y87.097 E4.19193
G1 X94.383 Y87.299 E4.22728
G1 X94.809 Y87.571 E4.26258
G1 X95.187 Y87.906 E4.29786
G1 X95.507 Y88.297 E4.33315
G1 X95.762 Y88.734 E4.36849
G1 X95.945 Y89.205 E4.40378
G1 X96.052 Y89.699 E4.43909
G1 X96.088 Y90.336 E4.48365
G1 X96.089 Y165.417 E9.72778
G1 X96.08 Y166.145 E9.77863
G1 X96.034 Y166.648 E9.81391
G1 X95.909 Y167.138 E9.84923
G1 X95.708 Y167.602 E9.88455
G1 X95.437 Y168.029 E9.91987
G1 X95.102 Y168.408 E9.9552
G1 X94.712 Y168.729 E9.99048
G1 X94.276 Y168.985 E10.0258
G1 X93.805 Y169.168 E10.06109
G1 X93.311 Y169.276 E10.09641
G1 X92.649 Y169.313 E10.14272
G1 X80.55 Y169.314 E10.98779
G1 X78.825 Y169.289 E11.10829
G1 X77.969 Y169.265 E11.1681
G1 X75.234 Y169.265 E11.35913
G1 X72.657 Y169.328 E11.53918
G1 X60.649 Y169.328 E12.37789
G1 X59.513 Y169.312 E12.45725
G1 X57.501 Y169.254 E12.59784
G1 X54.751 Y169.254 E12.78991
G1 X53.278 Y169.286 E12.89282
G1 X51.791 Y169.328 E12.99672
G1 X39.796 Y169.328 E13.83453
G1 X39.104 Y169.319 E13.88287
G1 X38.601 Y169.272 E13.91815
G1 X38.111 Y169.147 E13.95347
G1 X37.647 Y168.946 E13.98879
G1 X37.221 Y168.675 E14.02406
G1 X36.842 Y168.34 E14.05939
G1 X36.521 Y167.949 E14.09472
G1 X36.266 Y167.513 E14.13
G1 X36.082 Y167.042 E14.16532
G1 X35.975 Y166.548 E14.20062
G1 X35.947 Y166.043 E14.23595
G1 X35.999 Y165.54 E14.27127
G1 X36.159 Y164.972 E14.31249
G1 X36.365 Y164.435 E14.35266
G1 X37.005 Y162.837 E14.47289
G1 X37.947 Y160.278 E14.66335
G1 X38.816 Y157.694 E14.85377
G1 X39.621 Y155.056 E15.04641
G1 X40.342 Y152.428 E15.23675
G1 X40.996 Y149.75 E15.4293
G1 X41.574 Y147.049 E15.62222
G1 X42.063 Y144.416 E15.80927
G1 X42.487 Y141.697 E16.00148
G1 X42.833 Y138.968 E16.19362
G1 X43.102 Y136.229 E16.38585
G1 X43.293 Y133.512 E16.57609
G1 X43.405 Y130.802 E16.76553
G1 X43.442 Y128.041 E16.95839
G1 X43.401 Y125.295 E17.15021
G1 X43.283 Y122.577 E17.34023
G1 X43.087 Y119.831 E17.53252
G1 X42.815 Y117.122 E17.72269
G1 X42.465 Y114.401 E17.9143
G1 X42.039 Y111.702 E18.10515
G1 X41.536 Y109.009 E18.2965
G1 X40.957 Y106.332 E18.4878
G1 X40.298 Y103.65 E18.6807
G1 X39.577 Y101.043 E18.86963
G1 X38.768 Y98.405 E19.06235
G1 X37.898 Y95.834 E19.25193
G1 X36.946 Y93.263 E19.44342
G1 X36.173 Y91.322 E19.58935
G1 X36.024 Y90.839 E19.62465
G1 X35.952 Y90.338 E19.66
G1 F3600 E17.86
;MESH:WS Pole Clip.stl
G0 X38.803 Y91.003
G0 X39.788 Y90.548
G0 X42.431 Y95.832
G1 F3600 E19.66
G0 X42.422 Y95.834
;TYPE:WALL-INNER
G1 F900 X44.734 Y102.093 E20.12604
G1 X46.522 Y108.424 E20.58554
G1 X46.533 Y108.47 E20.58884
G1 X47.816 Y114.917 E21.04797
G1 X47.823 Y114.964 E21.05129
G1 X48.595 Y121.491 E21.51035
G1 X48.599 Y121.538 E21.51365
G1 X48.859 Y128.127 E21.97422
G1 X48.599 Y134.719 E22.43501
G1 X48.595 Y134.766 E22.4383
G1 X47.819 Y141.326 E22.89969
G1 X46.533 Y147.788 E23.35989
G1 X46.522 Y147.833 E23.36312
G1 X44.735 Y154.165 E23.82266
G1 X42.785 Y159.452 E24.21626
G1 X42.449 Y160.358 E24.28375
G1 X40.069 Y165.527 E24.68122
G1 X51.531 Y165.528 E25.4818
G1 X51.531 Y95.243 E30.39094
G1 X51.531 Y90.728 E30.7063
G1 X40.069 Y90.728 E31.50688
G1 X42.404 Y95.791 E31.8963
G1 X42.422 Y95.834 E31.89956
G0 F3600 X42.047 Y95.973
;TYPE:WALL-OUTER
G1 F900 X44.349 Y102.201 E32.36333
G1 X46.141 Y108.548 E32.82397
G1 X47.426 Y115.011 E33.28422
G1 X48.199 Y121.554 E33.74441
G1 X48.458 Y128.135 E34.20442
G1 X48.198 Y134.719 E34.66465
G1 X47.424 Y141.262 E35.12484
G1 X46.137 Y147.725 E35.58512
G1 X44.345 Y154.071 E36.04569
G1 X42.085 Y160.191 E36.50137
G1 X39.444 Y165.927 E36.94243
G1 X51.931 Y165.928 E37.8146
G1 X51.931 Y95.243 E42.75169
G1 X51.931 Y90.328 E43.09498
G1 X39.444 Y90.328 E43.96715
G1 X42.047 Y95.973 E44.40133
G0 F3600 X42.116 Y96.16
G0 X42.754 Y95.644
;TYPE:SKIN
G1 F900 X45.08 Y101.93 E44.86948
G1 X46.893 Y108.334 E45.33436
G1 X48.191 Y114.857 E45.7989
G1 X48.974 Y121.459 E46.26325
G1 X49.238 Y128.103 E46.72768
G1 X48.978 Y134.749 E47.19223
G1 X48.199 Y141.353 E47.6567
G1 X46.903 Y147.878 E48.12135
G1 X45.1 Y154.275 E48.58556
G1 X42.817 Y160.462 E49.04618
G1 X40.663 Y165.147 E49.40634
G1 X51.151 Y165.148 E50.13889
G1 X51.151 Y134.876 E52.25327
G1 X51.151 Y91.108 E55.31031
G1 X40.663 Y91.109 E56.04285
G1 X42.754 Y95.644 E56.39166
G0 F3600 X50.951 Y91.68
G1 F900 X50.578 Y91.307 E56.4285
G0 F3600 X50.012 Y91.307
G1 F900 X50.951 Y92.246 E56.52125
G0 F3600 X50.951 Y92.812
G1 F900 X49.447 Y91.307 E56.66986
G0 F3600 X48.881 Y91.307
G1 F900 X50.951 Y93.377 E56.87433
G0 F3600 X50.951 Y93.943
G1 F900 X48.315 Y91.307 E57.13471
G0 F3600 X47.75 Y91.307
G1 F900 X50.951 Y94.509 E57.45095
G0 F3600 X50.951 Y95.074
G1 F900 X47.184 Y91.307 E57.82304
G0 F3600 X46.618 Y91.307
G1 F900 X50.951 Y95.64 E58.25104
G0 F3600 X50.951 Y96.206
G1 F900 X46.053 Y91.307 E58.73491
G0 F3600 X45.487 Y91.307
G1 F900 X50.951 Y96.771 E59.27463
G0 F3600 X50.951 Y97.337
G1 F900 X44.921 Y91.307 E59.87026
G0 F3600 X44.356 Y91.307
G1 F900 X50.951 Y97.903 E60.52174
G0 F3600 X50.951 Y98.468
G1 F900 X43.79 Y91.307 E61.22909
G0 F3600 X43.224 Y91.307
G1 F900 X50.951 Y99.034 E61.99234
G0 F3600 X50.951 Y99.6
G1 F900 X42.659 Y91.307 E62.81146
G0 F3600 X42.093 Y91.307
G1 F900 X50.951 Y100.165 E63.68643
G0 F3600 X50.951 Y100.731
G1 F900 X41.527 Y91.307 E64.61731
G0 F3600 X40.985 Y91.331
G1 F900 X50.951 Y101.297 E65.60172
G0 F3600 X50.951 Y101.862
G1 F900 X41.469 Y92.381 E66.53828
G1 X41.399 Y92.311
G0 F3600 X41.954 Y93.431
G1 F900 X50.951 Y102.428 E67.42699
G0 F3600 X50.951 Y102.994
G1 F900 X42.439 Y94.482 E68.26778
G1 X42.369 Y94.412
G0 F3600 X42.923 Y95.532
G1 F900 X50.951 Y103.56 E69.06077
G0 F3600 X50.951 Y104.125
G1 F900 X43.257 Y96.432 E69.82071
G1 X43.187 Y96.362
G0 F3600 X43.591 Y97.331
G1 F900 X50.951 Y104.691 E70.54771
G0 F3600 X50.951 Y105.257
G1 F900 X43.923 Y98.229 E71.24192
G1 X43.853 Y98.159
G0 F3600 X44.255 Y99.127
G1 F900 X50.951 Y105.822 E71.90329
G0 F3600 X50.951 Y106.388
G1 F900 X44.588 Y100.025 E72.53181
G1 X44.518 Y99.955
G0 F3600 X44.921 Y100.923
G1 F900 X50.951 Y106.954 E73.12749
G0 F3600 X50.951 Y107.519
G1 F900 X45.254 Y101.822 E73.69022
G1 X45.184 Y101.752
G0 F3600 X45.48 Y102.614
G1 F900 X50.951 Y108.085 E74.23064
G0 F3600 X50.951 Y108.651
G1 F900 X45.703 Y103.403 E74.74902
G1 X45.633 Y103.333
G0 F3600 X45.927 Y104.192
G1 F900 X50.951 Y109.216 E75.24528
G0 F3600 X50.951 Y109.782
G1 F900 X46.151 Y104.982 E75.71941
G1 X46.081 Y104.912
G0 F3600 X46.374 Y105.771
G1 F900 X50.951 Y110.348 E76.17152
G0 F3600 X50.951 Y110.913
G1 F900 X46.598 Y106.56 E76.6015
G1 X46.528 Y106.49
G0 F3600 X46.821 Y107.35
G1 F900 X50.951 Y111.479 E77.0094
G0 F3600 X50.951 Y112.045
G1 F900 X47.045 Y108.139 E77.39522
G0 F3600 X47.199 Y108.859
G1 F900 X50.951 Y112.61 E77.76579
G0 F3600 X50.951 Y113.176
G1 F900 X47.34 Y109.566 E78.12242
G0 F3600 X47.481 Y110.272
G1 F900 X50.951 Y113.742 E78.46518
G0 F3600 X50.951 Y114.308
G1 F900 X47.622 Y110.979 E78.79401
G0 F3600 X47.763 Y111.686
G1 F900 X50.951 Y114.873 E79.10886
G0 F3600 X50.951 Y115.439
G1 F900 X47.904 Y112.392 E79.40984
G0 F3600 X48.045 Y113.099
G1 F900 X50.951 Y116.005 E79.69689
G0 F3600 X50.951 Y116.57
G1 F900 X48.186 Y113.806 E79.96996
G0 F3600 X48.327 Y114.512
G1 F900 X50.951 Y117.136 E80.22915
G0 F3600 X50.951 Y117.702
G1 F900 X48.429 Y115.18 E80.47827
G0 F3600 X48.506 Y115.822
G1 F900 X50.951 Y118.267 E80.71978
G0 F3600 X50.951 Y118.833
G1 F900 X48.582 Y116.464 E80.95378
G0 F3600 X48.658 Y117.106
G1 F900 X50.951 Y119.399 E81.18028
G0 F3600 X50.951 Y119.964
G1 F900 X48.735 Y117.748 E81.39917
G0 F3600 X48.811 Y118.39
G1 F900 X50.951 Y120.53 E81.61055
G0 F3600 X50.951 Y121.096
G1 F900 X48.887 Y119.032 E81.81443
G0 F3600 X48.964 Y119.674
G1 F900 X50.951 Y121.661 E82.0107
G0 F3600 X50.951 Y122.227
G1 F900 X49.04 Y120.317 E82.19942
G0 F3600 X49.117 Y120.959
G1 F900 X50.951 Y122.793 E82.38058
G0 F3600 X50.951 Y123.359
G1 F900 X49.178 Y121.586 E82.55571
G0 F3600 X49.201 Y122.175
G1 F900 X50.951 Y123.924 E82.72852
G0 F3600 X50.951 Y124.49
G1 F900 X49.225 Y122.765 E82.89896
G0 F3600 X49.249 Y123.354
G1 F900 X50.951 Y125.056 E83.06708
G0 F3600 X50.951 Y125.621
G1 F900 X49.272 Y123.943 E83.23288
G0 F3600 X49.295 Y124.532
G1 F900 X50.951 Y126.187 E83.3964
G0 F3600 X50.951 Y126.753
G1 F900 X49.319 Y125.121 E83.55761
G0 F3600 X49.343 Y125.71
G1 F900 X50.951 Y127.318 E83.71644
G0 F3600 X50.951 Y127.884
G1 F900 X49.366 Y126.299 E83.87301
G0 F3600 X49.389 Y126.888
G1 F900 X50.951 Y128.45 E84.0273
G0 F3600 X50.951 Y129.015
G1 F900 X49.414 Y127.478 E84.17912
G0 F3600 X49.437 Y128.067
G1 F900 X50.951 Y129.581 E84.32867
G0 F3600 X50.951 Y130.147
G1 F900 X49.416 Y128.612 E84.48029
G0 F3600 X49.395 Y129.157
G1 F900 X50.951 Y130.712 E84.63394
G0 F3600 X50.951 Y131.278
G1 F900 X49.374 Y129.701 E84.78971
G0 F3600 X49.353 Y130.246
G1 F900 X50.951 Y131.844 E84.94756
G0 F3600 X50.951 Y132.409
G1 F900 X49.332 Y130.79 E85.10748
G0 F3600 X49.311 Y131.335
G1 F900 X50.951 Y132.975 E85.26947
G0 F3600 X50.951 Y133.541
G1 F900 X49.29 Y131.88 E85.43354
G0 F3600 X49.269 Y132.424
G1 F900 X50.951 Y134.107 E85.59974
G0 F3600 X50.951 Y134.672
G1 F900 X49.247 Y132.969 E85.768
G0 F3600 X49.226 Y133.513
G1 F900 X50.951 Y135.238 E85.93839
G0 F3600 X50.951 Y135.804
G1 F900 X49.205 Y134.058 E86.11086
G0 F3600 X49.184 Y134.602
G1 F900 X50.951 Y136.369 E86.2854
G0 F3600 X50.951 Y136.935
G1 F900 X49.134 Y135.118 E86.46488
G0 F3600 X49.074 Y135.624
G1 F900 X50.951 Y137.501 E86.65028
G0 F3600 X50.951 Y138.066
G1 F900 X49.015 Y136.13 E86.84152
G0 F3600 X48.955 Y136.637
G1 F900 X50.951 Y138.632 E87.03863
G0 F3600 X50.951 Y139.198
G1 F900 X48.896 Y137.143 E87.24162
G0 F3600 X48.836 Y137.648
G1 F900 X50.951 Y139.763 E87.45053
G0 F3600 X50.951 Y140.329
G1 F900 X48.776 Y138.155 E87.66532
G0 F3600 X48.717 Y138.661
G1 F900 X50.951 Y140.895 E87.88599
G0 F3600 X50.951 Y141.46
G1 F900 X48.658 Y139.167 E88.11249
G0 F3600 X48.598 Y139.673
G1 F900 X50.951 Y142.026 E88.34491
G0 F3600 X50.951 Y142.592
G1 F900 X48.538 Y140.179 E88.58326
G0 F3600 X48.479 Y140.685
G1 F900 X50.951 Y143.158 E88.82749
G0 F3600 X50.951 Y143.723
G1 F900 X48.419 Y141.192 E89.07755
G0 F3600 X48.337 Y141.675
G1 F900 X50.951 Y144.289 E89.33575
G0 F3600 X50.951 Y144.855
G1 F900 X48.243 Y142.147 E89.60324
G0 F3600 X48.149 Y142.619
G1 F900 X50.951 Y145.42 E89.87997
G0 F3600 X50.951 Y145.986
G1 F900 X48.056 Y143.091 E90.16593
G0 F3600 X47.963 Y143.563
G1 F900 X50.951 Y146.552 E90.46112
G0 F3600 X50.951 Y147.117
G1 F900 X47.869 Y144.035 E90.76556
G0 F3600 X47.775 Y144.507
G1 F900 X50.951 Y147.683 E91.07927
G0 F3600 X50.951 Y148.249
G1 F900 X47.681 Y144.979 E91.40228
G0 F3600 X47.588 Y145.451
G1 F900 X50.951 Y148.814 E91.73446
G0 F3600 X50.951 Y149.38
G1 F900 X47.494 Y145.924 E92.07589
G0 F3600 X47.4 Y146.395
G1 F900 X50.951 Y149.946 E92.42665
G0 F3600 X50.951 Y150.511
G1 F900 X47.307 Y146.868 E92.78654
G0 F3600 X47.213 Y147.339
G1 F900 X50.951 Y151.077 E93.15578
G0 F3600 X50.951 Y151.643
G1 F900 X47.12 Y147.812 E93.53419
G0 F3600 X47.001 Y148.259
G1 F900 X50.951 Y152.208 E93.92431
G0 F3600 X50.951 Y152.774
G1 F900 X46.877 Y148.701 E94.32668
G0 F3600 X46.753 Y149.142
G1 F900 X50.951 Y153.34 E94.74135
G0 F3600 X50.951 Y153.906
G1 F900 X46.628 Y149.583 E95.16837
G0 F3600 X46.504 Y150.024
G1 F900 X50.951 Y154.471 E95.60763
G0 F3600 X50.951 Y155.037
G1 F900 X46.38 Y150.466 E96.05914
G0 F3600 X46.256 Y150.907
G1 F900 X50.951 Y155.603 E96.52295
G0 F3600 X50.951 Y156.168
G1 F900 X46.131 Y151.349 E96.99901
G0 F3600 X46.007 Y151.79
G1 F900 X50.951 Y156.734 E97.48737
G0 F3600 X50.951 Y157.3
G1 F900 X45.883 Y152.232 E97.98797
G0 F3600 X45.759 Y152.673
G1 F900 X50.951 Y157.865 E98.50083
G0 F3600 X50.951 Y158.431
G1 F900 X45.634 Y153.114 E99.02603
G0 F3600 X45.51 Y153.556
G1 F900 X50.951 Y158.997 E99.56348
G0 F3600 X50.951 Y159.562
G1 F900 X45.386 Y153.997 E100.11317
G0 F3600 X45.254 Y154.431
G1 F900 X50.951 Y160.128 E100.67591
G0 F3600 X50.951 Y160.694
G1 F900 X45.101 Y154.844 E101.25376
G0 F3600 X44.949 Y155.258
G1 F900 X50.951 Y161.259 E101.84657
G0 F3600 X50.951 Y161.825
G1 F900 X44.796 Y155.67 E102.45455
G0 F3600 X44.644 Y156.084
G1 F900 X50.951 Y162.391 E103.07754
G0 F3600 X50.951 Y162.957
G1 F900 X44.491 Y156.497 E103.71564
G0 F3600 X44.339 Y156.911
G1 F900 X50.951 Y163.522 E104.36871
G0 F3600 X50.951 Y164.088
G1 F900 X44.187 Y157.324 E105.03684
G0 F3600 X44.035 Y157.737
G1 F900 X50.951 Y164.654 E105.72003
G0 F3600 X50.678 Y164.946
G1 F900 X43.882 Y158.15 E106.39133
G0 F3600 X43.73 Y158.564
G1 F900 X50.112 Y164.946 E107.02172
G0 F3600 X49.546 Y164.946
G1 F900 X43.578 Y158.978 E107.61123
G0 F3600 X43.425 Y159.391
G1 F900 X48.981 Y164.946 E108.15999
G0 F3600 X48.415 Y164.946
G1 F900 X43.273 Y159.804 E108.6679
G0 F3600 X43.12 Y160.217
G1 F900 X47.849 Y164.946 E109.13502
G0 F3600 X47.284 Y164.946
G1 F900 X42.961 Y160.624 E109.56199
G0 F3600 X42.783 Y161.011
G1 F900 X46.718 Y164.946 E109.95068
G0 F3600 X46.152 Y164.946
G1 F900 X42.605 Y161.399 E110.30104
G0 F3600 X42.427 Y161.786
G1 F900 X45.586 Y164.946 E110.61313
G0 F3600 X45.02 Y164.946
G1 F900 X42.248 Y162.174 E110.88694
G0 F3600 X42.07 Y162.561
G1 F900 X44.455 Y164.946 E111.12252
G0 F3600 X43.889 Y164.946
G1 F900 X41.892 Y162.949 E111.31978
G0 F3600 X41.714 Y163.336
G1 F900 X43.323 Y164.946 E111.47877
G0 F3600 X42.758 Y164.946
G1 F900 X41.536 Y163.724 E111.59947
G0 F3600 X41.357 Y164.111
G1 F900 X42.192 Y164.946 E111.68195
G0 F3600 X41.626 Y164.946
G1 F900 X41.179 Y164.499 E111.7261
G0 F3600 X41.001 Y164.886
G1 F900 X41.06 Y164.946 E111.73198
G1 F3600 E109.93198
;MESH:WS Pole Clip.stl(1)
G0 X44.587 Y154.133
G0 X46.381 Y147.773
G0 X47.671 Y141.292
G0 X48.369 Y135.388
G0 X51.701 Y95.832
G0 X52.796 Y95.832
G0 X60.099 Y91.959
G0 X61.074 Y91.509
G0 X63.285 Y95.832
G1 F3600 E111.73198
G0 X63.276 Y95.834
;TYPE:WALL-INNER
G1 F900 X65.574 Y102.047 E112.19467
G1 X65.589 Y102.093 E112.19805
G1 X67.376 Y108.425 E112.65759
G1 X67.387 Y108.47 E112.66083
G1 X68.67 Y114.917 E113.11996
G1 X69.45 Y121.491 E113.58235
G1 X69.454 Y121.538 E113.58564
G1 X69.712 Y128.127 E114.04621
G1 X69.454 Y134.719 E114.50699
G1 X69.45 Y134.766 E114.51028
G1 X68.673 Y141.326 E114.97168
G1 X67.387 Y147.788 E115.43188
G1 X67.376 Y147.833 E115.43511
G1 X65.59 Y154.164 E115.89457
G1 X65.575 Y154.209 E115.89788
